;FLAVOR:Marlin
;TIME:4708
;Filament used: 3.08874m
;Layer height: 0.2
;MINX:82.001
;MINY:83.97
;MINZ:0.2
;MAXX:152.999
;MAXY:151.03
;MAXZ:48.8
;Generated with Cura_SteamEngine 4.6.2
M140 S50
M105
M190 S50
M104 S200
M105
M109 S200
M82 ;absolute extrusion mode
; Ender 3 Custom Start G-code
G92 E0 ; Reset Extruder
G28 ; Home all axes
G1 Z2.0 F3000 ; Move Z Axis up little to prevent scratching of Heat Bed
G1 X0.1 Y20 Z0.3 F5000.0 ; Move to start position
G1 X0.1 Y200.0 Z0.3 F1500.0 E15 ; Draw the first line
G1 X0.4 Y200.0 Z0.3 F5000.0 ; Move to side a little
G1 X0.4 Y20 Z0.3 F1500.0 E30 ; Draw the second line
G92 E0 ; Reset Extruder
G1 Z2.0 F3000 ; Move Z Axis up little to prevent scratching of Heat Bed
G1 X5 Y20 Z0.3 F5000.0 ; Move over to prevent blob squish
G92 E0
G92 E0
G1 F2700 E-5
;LAYER_COUNT:244
;LAYER:0
M107
G0 F6000 X142.136 Y84.781 Z0.2
;TYPE:SKIRT
G1 F2700 E0
G1 F1200 X143.038 Y84.834 E0.03005
G1 X143.931 Y84.966 E0.06008
G1 X144.809 Y85.177 E0.09011
G1 X145.665 Y85.465 E0.12015
G1 X146.492 Y85.827 E0.15018
G1 X147.284 Y86.262 E0.18023
G1 X148.035 Y86.764 E0.21027
G1 X148.738 Y87.331 E0.24031
G1 X149.388 Y87.958 E0.27035
G1 X149.98 Y88.64 E0.30039
G1 X150.51 Y89.371 E0.33042
G1 X150.972 Y90.147 E0.36046
G1 X151.365 Y90.96 E0.39049
G1 X151.683 Y91.805 E0.42052
G1 X151.926 Y92.675 E0.45056
G1 X152.091 Y93.563 E0.4806
G1 X152.186 Y94.693 E0.51832
G1 X152.199 Y95.3 E0.53851
G1 X152.198 Y139.42 E2.00595
G1 X152.189 Y140.147 E2.03013
G1 X152.138 Y141.049 E2.06018
G1 X152.007 Y141.943 E2.09023
G1 X151.798 Y142.821 E2.12025
G1 X151.512 Y143.678 E2.1503
G1 X151.151 Y144.506 E2.18035
G1 X150.719 Y145.298 E2.21035
G1 X150.218 Y146.05 E2.24041
G1 X149.652 Y146.754 E2.27045
G1 X149.027 Y147.405 E2.30047
G1 X148.346 Y147.999 E2.33052
G1 X147.615 Y148.53 E2.36057
G1 X146.841 Y148.994 E2.39059
G1 X146.028 Y149.388 E2.42063
G1 X145.184 Y149.708 E2.45066
G1 X144.314 Y149.953 E2.48072
G1 X143.427 Y150.119 E2.51073
G1 X142.276 Y150.217 E2.54915
G1 X141.669 Y150.23 E2.56935
G1 X93.576 Y150.229 E4.16893
G1 X92.878 Y150.22 E4.19214
G1 X91.977 Y150.169 E4.22216
G1 X91.083 Y150.037 E4.25222
G1 X90.205 Y149.828 E4.28223
G1 X89.348 Y149.541 E4.31229
G1 X88.521 Y149.18 E4.34231
G1 X87.728 Y148.747 E4.37236
G1 X86.977 Y148.246 E4.40238
G1 X86.273 Y147.68 E4.43243
G1 X85.622 Y147.054 E4.46247
G1 X85.029 Y146.373 E4.4925
G1 X84.499 Y145.642 E4.52253
G1 X84.035 Y144.867 E4.55258
G1 X83.641 Y144.054 E4.58262
G1 X83.321 Y143.21 E4.61265
G1 X83.077 Y142.34 E4.6427
G1 X82.911 Y141.452 E4.67275
G1 X82.814 Y140.297 E4.7113
G1 X82.801 Y139.688 E4.73156
G1 X82.802 Y95.506 E6.20106
G1 X82.811 Y94.841 E6.22318
G1 X82.863 Y93.939 E6.25323
G1 X82.995 Y93.046 E6.28325
G1 X83.205 Y92.168 E6.31328
G1 X83.492 Y91.311 E6.34334
G1 X83.854 Y90.484 E6.37336
G1 X84.287 Y89.692 E6.40338
G1 X84.789 Y88.941 E6.43343
G1 X85.356 Y88.237 E6.46349
G1 X85.982 Y87.587 E6.49351
G1 X86.663 Y86.994 E6.52354
G1 X87.395 Y86.464 E6.5536
G1 X88.17 Y86.001 E6.58363
G1 X88.983 Y85.608 E6.61366
G1 X89.828 Y85.288 E6.64371
G1 X90.697 Y85.045 E6.67373
G1 X91.585 Y84.879 E6.70377
G1 X92.724 Y84.783 E6.74179
G1 X93.331 Y84.77 E6.76198
G1 X141.438 Y84.771 E8.36203
G1 X142.136 Y84.781 E8.38525
G0 F6000 X142.142 Y84.381
G1 F1200 X143.061 Y84.434 E8.41586
G1 X143.972 Y84.567 E8.44648
G1 X144.868 Y84.778 E8.4771
G1 X145.742 Y85.066 E8.50771
G1 X146.589 Y85.429 E8.53836
G1 X147.4 Y85.864 E8.56897
G1 X148.17 Y86.368 E8.59957
G1 X148.894 Y86.937 E8.6302
G1 X149.566 Y87.567 E8.66084
G1 X150.181 Y88.252 E8.69146
G1 X150.734 Y88.988 E8.72208
G1 X151.221 Y89.769 E8.75269
G1 X151.638 Y90.59 E8.78332
G1 X151.983 Y91.444 E8.81395
G1 X152.252 Y92.324 E8.84456
G1 X152.444 Y93.225 E8.8752
G1 X152.557 Y94.138 E8.90579
G1 X152.586 Y94.682 E8.92391
G1 X152.599 Y95.3 E8.94447
G1 X152.598 Y139.425 E10.41208
G1 X152.589 Y140.152 E10.43626
G1 X152.538 Y141.071 E10.46687
G1 X152.407 Y141.983 E10.49752
G1 X152.197 Y142.879 E10.52812
G1 X151.911 Y143.754 E10.55874
G1 X151.55 Y144.601 E10.58937
G1 X151.116 Y145.413 E10.61999
G1 X150.614 Y146.185 E10.65062
G1 X150.046 Y146.91 E10.68125
G1 X149.418 Y147.583 E10.71187
G1 X148.734 Y148.199 E10.74248
G1 X147.999 Y148.753 E10.77309
G1 X147.219 Y149.242 E10.80371
G1 X146.399 Y149.661 E10.83434
G1 X145.546 Y150.007 E10.86496
G1 X144.666 Y150.278 E10.89558
G1 X143.766 Y150.471 E10.9262
G1 X142.852 Y150.586 E10.95684
G1 X142.287 Y150.617 E10.97566
G1 X141.669 Y150.63 E10.99622
G1 X93.571 Y150.629 E12.59596
G1 X92.873 Y150.62 E12.61918
G1 X91.954 Y150.568 E12.64979
G1 X91.043 Y150.437 E12.68041
G1 X90.147 Y150.227 E12.71101
G1 X89.272 Y149.94 E12.74164
G1 X88.425 Y149.578 E12.77228
G1 X87.613 Y149.144 E12.8029
G1 X86.842 Y148.642 E12.8335
G1 X86.117 Y148.074 E12.86413
G1 X85.444 Y147.445 E12.89477
G1 X84.829 Y146.761 E12.92537
G1 X84.275 Y146.026 E12.95598
G1 X83.787 Y145.245 E12.98661
G1 X83.368 Y144.425 E13.01724
G1 X83.022 Y143.572 E13.04785
G1 X82.752 Y142.692 E13.07847
G1 X82.559 Y141.791 E13.10912
G1 X82.445 Y140.878 E13.13972
G1 X82.414 Y140.307 E13.15874
G1 X82.401 Y139.688 E13.17933
G1 X82.402 Y95.501 E14.649
G1 X82.411 Y94.836 E14.67112
G1 X82.463 Y93.916 E14.70176
G1 X82.595 Y93.005 E14.73238
G1 X82.806 Y92.109 E14.763
G1 X83.093 Y91.234 E14.79363
G1 X83.456 Y90.388 E14.82424
G1 X83.89 Y89.576 E14.85487
G1 X84.393 Y88.805 E14.88549
G1 X84.962 Y88.081 E14.91611
G1 X85.59 Y87.409 E14.9467
G1 X86.275 Y86.793 E14.97734
G1 X87.011 Y86.24 E15.00796
G1 X87.792 Y85.752 E15.03859
G1 X88.612 Y85.334 E15.06921
G1 X89.466 Y84.989 E15.09984
G1 X90.346 Y84.719 E15.13046
G1 X91.246 Y84.527 E15.16106
G1 X92.16 Y84.413 E15.1917
G1 X92.713 Y84.383 E15.21012
G1 X93.331 Y84.37 E15.23068
G1 X141.444 Y84.371 E16.83092
G1 X142.142 Y84.381 E16.85414
G0 F6000 X142.148 Y83.981
G1 F1200 X143.084 Y84.035 E16.88532
G1 X144.012 Y84.167 E16.9165
G1 X144.926 Y84.379 E16.94771
G1 X145.818 Y84.668 E16.97889
G1 X146.683 Y85.031 E17.01009
G1 X147.513 Y85.467 E17.04128
G1 X148.304 Y85.972 E17.07249
G1 X149.048 Y86.543 E17.10368
G1 X149.741 Y87.175 E17.13488
G1 X150.378 Y87.863 E17.16606
G1 X150.953 Y88.604 E17.19726
G1 X151.464 Y89.39 E17.22844
G1 X151.906 Y90.218 E17.25966
G1 X152.275 Y91.08 E17.29085
G1 X152.57 Y91.97 E17.32203
G1 X152.788 Y92.882 E17.35322
G1 X152.928 Y93.81 E17.38443
G1 X152.986 Y94.671 E17.41313
G1 X152.999 Y95.3 E17.43406
G1 X152.998 Y139.43 E18.90183
G1 X152.989 Y140.157 E18.92601
G1 X152.938 Y141.094 E18.95722
G1 X152.806 Y142.022 E18.9884
G1 X152.597 Y142.936 E19.01958
G1 X152.31 Y143.829 E19.05078
G1 X151.948 Y144.695 E19.082
G1 X151.514 Y145.526 E19.11318
G1 X151.01 Y146.317 E19.14438
G1 X150.441 Y147.062 E19.17556
G1 X149.81 Y147.757 E19.20678
G1 X149.123 Y148.395 E19.23796
G1 X148.384 Y148.972 E19.26914
G1 X147.598 Y149.484 E19.30034
G1 X146.772 Y149.927 E19.33152
G1 X145.91 Y150.299 E19.36274
G1 X145.021 Y150.595 E19.39391
G1 X144.109 Y150.815 E19.42511
G1 X143.182 Y150.956 E19.4563
G1 X142.298 Y151.017 E19.48577
G1 X141.669 Y151.03 E19.5067
G1 X93.566 Y151.029 E21.10661
G1 X92.868 Y151.02 E21.12983
G1 X91.932 Y150.968 E21.16101
G1 X91.003 Y150.836 E21.19221
G1 X90.089 Y150.626 E21.22341
G1 X89.196 Y150.339 E21.2546
G1 X88.331 Y149.976 E21.2858
G1 X87.5 Y149.542 E21.31699
G1 X86.709 Y149.038 E21.34818
G1 X85.964 Y148.468 E21.37938
G1 X85.27 Y147.837 E21.41058
G1 X84.633 Y147.15 E21.44174
G1 X84.056 Y146.41 E21.47295
G1 X83.544 Y145.624 E21.50415
G1 X83.101 Y144.797 E21.53535
G1 X82.73 Y143.936 E21.56653
G1 X82.434 Y143.046 E21.59773
G1 X82.215 Y142.134 E21.62893
G1 X82.074 Y141.207 E21.66011
G1 X82.014 Y140.318 E21.68975
G1 X82.001 Y139.688 E21.71071
G1 X82.002 Y95.495 E23.18057
G1 X82.011 Y94.83 E23.20269
G1 X82.064 Y93.894 E23.23387
G1 X82.196 Y92.965 E23.26508
G1 X82.407 Y92.051 E23.29628
G1 X82.695 Y91.159 E23.32746
G1 X83.058 Y90.294 E23.35866
G1 X83.493 Y89.463 E23.38986
G1 X83.997 Y88.673 E23.42102
G1 X84.567 Y87.928 E23.45222
G1 X85.199 Y87.234 E23.48344
G1 X85.887 Y86.597 E23.51463
G1 X86.627 Y86.021 E23.54582
G1 X87.413 Y85.509 E23.57702
G1 X88.24 Y85.067 E23.6082
G1 X89.102 Y84.697 E23.6394
G1 X89.992 Y84.401 E23.6706
G1 X90.904 Y84.183 E23.70179
G1 X91.831 Y84.042 E23.73297
G1 X92.702 Y83.983 E23.76201
G1 X93.331 Y83.97 E23.78294
G1 X141.45 Y83.971 E25.38338
G1 X142.148 Y83.981 E25.4066
G1 F2700 E20.4066
;MESH:ControlsBox1.stl
G0 F6000 X141.579 Y94.305
G0 X141.579 Y95.39
G0 X93.783 Y95.752
G0 X93.601 Y139.43
;TYPE:WALL-INNER
G1 F2700 E25.4066
G1 F1200 X93.601 Y95.57 E26.86539
G1 X141.399 Y95.57 E28.45516
G1 X141.399 Y139.43 E29.91394
G1 X93.601 Y139.43 E31.50371
G0 F6000 X93.201 Y139.83
;TYPE:WALL-OUTER
G1 F1200 X93.201 Y95.17 E32.98911
G1 X141.799 Y95.17 E34.60549
G1 X141.799 Y139.83 E36.09088
G1 X93.201 Y139.83 E37.70726
G0 F6000 X93.471 Y139.56
G0 X93.711 Y139.04
G0 X93.991 Y139.04
;TYPE:SKIN
G1 F1200 X93.991 Y95.96 E39.14011
G1 X141.009 Y95.96 E40.70393
G1 X141.009 Y139.04 E42.13678
G1 X93.991 Y139.04 E43.7006
G0 F6000 X94.755 Y138.879
G1 F1200 X94.15 Y138.274 E43.72906
G0 F6000 X94.15 Y137.708
G1 F1200 X95.321 Y138.879 E43.78414
G0 F6000 X95.887 Y138.879
G1 F1200 X94.15 Y137.142 E43.86584
G0 F6000 X94.15 Y136.576
G1 F1200 X96.452 Y138.879 E43.97415
G0 F6000 X97.018 Y138.879
G1 F1200 X94.15 Y136.011 E44.10905
G0 F6000 X94.15 Y135.445
G1 F1200 X97.584 Y138.879 E44.27057
G0 F6000 X98.149 Y138.879
G1 F1200 X94.15 Y134.879 E44.4587
G0 F6000 X94.15 Y134.314
G1 F1200 X98.715 Y138.879 E44.67342
G0 F6000 X99.281 Y138.879
G1 F1200 X94.15 Y133.748 E44.91477
G0 F6000 X94.15 Y133.182
G1 F1200 X99.847 Y138.879 E45.18274
G0 F6000 X100.412 Y138.879
G1 F1200 X94.15 Y132.617 E45.47728
G0 F6000 X94.15 Y132.051
G1 F1200 X100.978 Y138.879 E45.79845
G0 F6000 X101.544 Y138.879
G1 F1200 X94.15 Y131.485 E46.14624
G0 F6000 X94.15 Y130.92
G1 F1200 X102.109 Y138.879 E46.52061
G0 F6000 X102.675 Y138.879
G1 F1200 X94.15 Y130.354 E46.9216
G0 F6000 X94.15 Y129.788
G1 F1200 X103.241 Y138.879 E47.34921
G0 F6000 X103.806 Y138.879
G1 F1200 X94.15 Y129.223 E47.8034
G0 F6000 X94.15 Y128.657
G1 F1200 X104.372 Y138.879 E48.28421
G0 F6000 X104.938 Y138.879
G1 F1200 X94.15 Y128.091 E48.79165
G0 F6000 X94.15 Y127.526
G1 F1200 X105.503 Y138.879 E49.32566
G0 F6000 X106.069 Y138.879
G1 F1200 X94.15 Y126.96 E49.88629
G0 F6000 X94.15 Y126.394
G1 F1200 X106.635 Y138.879 E50.47355
G0 F6000 X107.2 Y138.879
G1 F1200 X94.15 Y125.828 E51.0874
G0 F6000 X94.15 Y125.263
G1 F1200 X107.766 Y138.879 E51.72786
G0 F6000 X108.332 Y138.879
G1 F1200 X94.15 Y124.697 E52.39493
G0 F6000 X94.15 Y124.131
G1 F1200 X108.897 Y138.879 E53.08861
G0 F6000 X109.463 Y138.879
G1 F1200 X94.15 Y123.566 E53.80889
G0 F6000 X94.15 Y123
G1 F1200 X110.029 Y138.879 E54.55579
G0 F6000 X110.595 Y138.879
G1 F1200 X94.15 Y122.434 E55.32931
G0 F6000 X94.15 Y121.869
G1 F1200 X111.16 Y138.879 E56.12941
G0 F6000 X111.726 Y138.879
G1 F1200 X94.15 Y121.303 E56.95613
G0 F6000 X94.15 Y120.737
G1 F1200 X112.292 Y138.879 E57.80947
G0 F6000 X112.857 Y138.879
G1 F1200 X94.15 Y120.172 E58.68939
G0 F6000 X94.15 Y119.606
G1 F1200 X113.423 Y138.879 E59.59594
G0 F6000 X113.989 Y138.879
G1 F1200 X94.15 Y119.04 E60.5291
G0 F6000 X94.15 Y118.475
G1 F1200 X114.554 Y138.879 E61.48884
G0 F6000 X115.12 Y138.879
G1 F1200 X94.15 Y117.909 E62.47521
G0 F6000 X94.15 Y117.343
G1 F1200 X115.686 Y138.879 E63.48819
G0 F6000 X116.251 Y138.879
G1 F1200 X94.15 Y116.777 E64.52778
G0 F6000 X94.15 Y116.212
G1 F1200 X116.817 Y138.879 E65.59397
G0 F6000 X117.383 Y138.879
G1 F1200 X94.15 Y115.646 E66.68678
G0 F6000 X94.15 Y115.08
G1 F1200 X117.948 Y138.879 E67.80619
G0 F6000 X118.514 Y138.879
G1 F1200 X94.15 Y114.515 E68.95219
G0 F6000 X94.15 Y113.949
G1 F1200 X119.08 Y138.879 E70.12482
G0 F6000 X119.646 Y138.879
G1 F1200 X94.15 Y113.383 E71.32408
G0 F6000 X94.15 Y112.818
G1 F1200 X120.211 Y138.879 E72.54991
G0 F6000 X120.777 Y138.879
G1 F1200 X94.15 Y112.252 E73.80236
G0 F6000 X94.15 Y111.686
G1 F1200 X121.343 Y138.879 E75.08143
G0 F6000 X121.908 Y138.879
G1 F1200 X94.15 Y111.121 E76.38709
G0 F6000 X94.15 Y110.555
G1 F1200 X122.474 Y138.879 E77.71936
G0 F6000 X123.04 Y138.879
G1 F1200 X94.15 Y109.989 E79.07826
G0 F6000 X94.15 Y109.424
G1 F1200 X123.605 Y138.879 E80.46373
G0 F6000 X124.171 Y138.879
G1 F1200 X94.15 Y108.858 E81.87583
G0 F6000 X94.15 Y108.292
G1 F1200 X124.737 Y138.879 E83.31454
G0 F6000 X125.302 Y138.879
G1 F1200 X94.15 Y107.727 E84.77984
G0 F6000 X94.15 Y107.161
G1 F1200 X125.868 Y138.879 E86.27176
G0 F6000 X126.434 Y138.879
G1 F1200 X94.15 Y106.595 E87.7903
G0 F6000 X94.15 Y106.029
G1 F1200 X126.999 Y138.879 E89.33544
G0 F6000 X127.565 Y138.879
G1 F1200 X94.15 Y105.464 E90.90718
G0 F6000 X94.15 Y104.898
G1 F1200 X128.131 Y138.879 E92.50554
G0 F6000 X128.696 Y138.879
G1 F1200 X94.15 Y104.332 E94.1305
G0 F6000 X94.15 Y103.767
G1 F1200 X129.262 Y138.879 E95.78206
G0 F6000 X129.828 Y138.879
G1 F1200 X94.15 Y103.201 E97.46024
G0 F6000 X94.15 Y102.635
G1 F1200 X130.394 Y138.879 E99.16505
G0 F6000 X130.959 Y138.879
G1 F1200 X94.15 Y102.07 E100.89643
G0 F6000 X94.15 Y101.504
G1 F1200 X131.525 Y138.879 E102.65444
G0 F6000 X132.091 Y138.879
G1 F1200 X94.15 Y100.938 E104.43907
G0 F6000 X94.15 Y100.373
G1 F1200 X132.656 Y138.879 E106.25027
G0 F6000 X133.222 Y138.879
G1 F1200 X94.15 Y99.807 E108.0881
G0 F6000 X94.15 Y99.241
G1 F1200 X133.788 Y138.879 E109.95255
G0 F6000 X134.353 Y138.879
G1 F1200 X94.15 Y98.676 E111.84357
G0 F6000 X94.15 Y98.11
G1 F1200 X134.919 Y138.879 E113.76122
G0 F6000 X135.485 Y138.879
G1 F1200 X94.15 Y97.544 E115.70549
G0 F6000 X94.15 Y96.978
G1 F1200 X136.05 Y138.879 E117.67637
G0 F6000 X136.616 Y138.879
G1 F1200 X94.15 Y96.413 E119.67384
G0 F6000 X94.422 Y96.119
G1 F1200 X137.182 Y138.879 E121.68514
G0 F6000 X137.747 Y138.879
G1 F1200 X94.988 Y96.119 E123.69641
G0 F6000 X95.554 Y96.119
G1 F1200 X138.313 Y138.879 E125.70769
G0 F6000 X138.879 Y138.879
G1 F1200 X96.119 Y96.119 E127.71899
G0 F6000 X96.685 Y96.119
G1 F1200 X139.444 Y138.879 E129.73026
G0 F6000 X140.01 Y138.879
G1 F1200 X97.251 Y96.119 E131.74154
G0 F6000 X97.816 Y96.119
G1 F1200 X140.576 Y138.879 E133.75284
G0 F6000 X140.848 Y138.585
G1 F1200 X98.382 Y96.119 E135.75031
G0 F6000 X98.948 Y96.119
G1 F1200 X140.848 Y138.02 E137.72118
G0 F6000 X140.848 Y137.454
G1 F1200 X99.513 Y96.119 E139.66545
G0 F6000 X100.079 Y96.119
G1 F1200 X140.848 Y136.888 E141.5831
G0 F6000 X140.848 Y136.323
G1 F1200 X100.645 Y96.119 E143.47415
G0 F6000 X101.211 Y96.119
G1 F1200 X140.848 Y135.757 E145.33857
G0 F6000 X140.848 Y135.191
G1 F1200 X101.776 Y96.119 E147.1764
G0 F6000 X102.342 Y96.119
G1 F1200 X140.848 Y134.626 E148.98763
G0 F6000 X140.848 Y134.06
G1 F1200 X102.908 Y96.119 E150.77223
G0 F6000 X103.473 Y96.119
G1 F1200 X140.848 Y133.494 E152.53024
G0 F6000 X140.848 Y132.929
G1 F1200 X104.039 Y96.119 E154.26165
G0 F6000 X104.605 Y96.119
G1 F1200 X140.848 Y132.363 E155.96643
G0 F6000 X140.848 Y131.797
G1 F1200 X105.17 Y96.119 E157.64461
G0 F6000 X105.736 Y96.119
G1 F1200 X140.848 Y131.231 E159.29617
G0 F6000 X140.848 Y130.666
G1 F1200 X106.302 Y96.119 E160.92113
G0 F6000 X106.867 Y96.119
G1 F1200 X140.848 Y130.1 E162.5195
G0 F6000 X140.848 Y129.534
G1 F1200 X107.433 Y96.119 E164.09124
G0 F6000 X107.999 Y96.119
G1 F1200 X140.848 Y128.969 E165.63638
G0 F6000 X140.848 Y128.403
G1 F1200 X108.564 Y96.119 E167.15492
G0 F6000 X109.13 Y96.119
G1 F1200 X140.848 Y127.837 E168.64683
G0 F6000 X140.848 Y127.272
G1 F1200 X109.696 Y96.119 E170.11215
G0 F6000 X110.261 Y96.119
G1 F1200 X140.848 Y126.706 E171.55087
G0 F6000 X140.848 Y126.14
G1 F1200 X110.827 Y96.119 E172.96297
G0 F6000 X111.393 Y96.119
G1 F1200 X140.848 Y125.575 E174.34846
G0 F6000 X140.848 Y125.009
