;FLAVOR:Marlin
;TIME:7408
;Filament used: 5.16056m
;Layer height: 0.2
;MINX:82.002
;MINY:82.754
;MINZ:0.2
;MAXX:152.998
;MAXY:152.247
;MAXZ:43.6
;Generated with Cura_SteamEngine 4.6.2
M140 S50
M105
M190 S50
M104 S200
M105
M109 S200
M82 ;absolute extrusion mode
; Ender 3 Custom Start G-code
G92 E0 ; Reset Extruder
G28 ; Home all axes
G1 Z2.0 F3000 ; Move Z Axis up little to prevent scratching of Heat Bed
G1 X0.1 Y20 Z0.3 F5000.0 ; Move to start position
G1 X0.1 Y200.0 Z0.3 F1500.0 E15 ; Draw the first line
G1 X0.4 Y200.0 Z0.3 F5000.0 ; Move to side a little
G1 X0.4 Y20 Z0.3 F1500.0 E30 ; Draw the second line
G92 E0 ; Reset Extruder
G1 Z2.0 F3000 ; Move Z Axis up little to prevent scratching of Heat Bed
G1 X5 Y20 Z0.3 F5000.0 ; Move over to prevent blob squish
G92 E0
G92 E0
G1 F2700 E-5
;LAYER_COUNT:218
;LAYER:0
M107
G0 F6000 X142.134 Y83.564 Z0.2
;TYPE:SKIRT
G1 F2700 E0
G1 F1200 X143.036 Y83.617 E0.03005
G1 X143.929 Y83.749 E0.06008
G1 X144.808 Y83.96 E0.09014
G1 X145.664 Y84.248 E0.12018
G1 X146.491 Y84.61 E0.15021
G1 X147.283 Y85.044 E0.18025
G1 X148.033 Y85.547 E0.21028
G1 X148.736 Y86.114 E0.24032
G1 X149.386 Y86.74 E0.27033
G1 X149.979 Y87.422 E0.30039
G1 X150.508 Y88.154 E0.33043
G1 X150.971 Y88.929 E0.36046
G1 X151.363 Y89.743 E0.39051
G1 X151.682 Y90.588 E0.42055
G1 X151.925 Y91.457 E0.45056
G1 X152.09 Y92.345 E0.4806
G1 X152.184 Y93.456 E0.51769
G1 X152.198 Y94.062 E0.53785
G1 X152.198 Y140.637 E2.08694
G1 X152.189 Y141.364 E2.11112
G1 X152.138 Y142.266 E2.14117
G1 X152.007 Y143.16 E2.17122
G1 X151.798 Y144.038 E2.20124
G1 X151.512 Y144.895 E2.23129
G1 X151.151 Y145.723 E2.26133
G1 X150.719 Y146.515 E2.29134
G1 X150.218 Y147.267 E2.32139
G1 X149.652 Y147.971 E2.35143
G1 X149.027 Y148.622 E2.38145
G1 X148.346 Y149.216 E2.41151
G1 X147.615 Y149.747 E2.44156
G1 X146.841 Y150.211 E2.47157
G1 X146.028 Y150.605 E2.50162
G1 X145.184 Y150.925 E2.53164
G1 X144.314 Y151.17 E2.5617
G1 X143.427 Y151.336 E2.59172
G1 X142.276 Y151.434 E2.63014
G1 X141.669 Y151.447 E2.65033
G1 X93.584 Y151.446 E4.24965
G1 X92.886 Y151.437 E4.27286
G1 X91.985 Y151.386 E4.30288
G1 X91.091 Y151.254 E4.33294
G1 X90.213 Y151.045 E4.36295
G1 X89.356 Y150.758 E4.39301
G1 X88.529 Y150.397 E4.42303
G1 X87.736 Y149.964 E4.45308
G1 X86.985 Y149.463 E4.4831
G1 X86.281 Y148.897 E4.51315
G1 X85.63 Y148.271 E4.54319
G1 X85.037 Y147.59 E4.57322
G1 X84.507 Y146.859 E4.60325
G1 X84.043 Y146.084 E4.6333
G1 X83.649 Y145.271 E4.66334
G1 X83.329 Y144.427 E4.69337
G1 X83.085 Y143.557 E4.72342
G1 X82.919 Y142.669 E4.75346
G1 X82.822 Y141.514 E4.79202
G1 X82.809 Y140.907 E4.81221
G1 X82.802 Y94.331 E6.36133
G1 X82.811 Y93.635 E6.38448
G1 X82.862 Y92.733 E6.41453
G1 X82.994 Y91.84 E6.44456
G1 X83.203 Y90.962 E6.47458
G1 X83.49 Y90.105 E6.50463
G1 X83.851 Y89.277 E6.53468
G1 X84.284 Y88.485 E6.5647
G1 X84.786 Y87.734 E6.59474
G1 X85.352 Y87.03 E6.62479
G1 X85.977 Y86.379 E6.6548
G1 X86.659 Y85.786 E6.68486
G1 X87.389 Y85.255 E6.71489
G1 X88.164 Y84.792 E6.74491
G1 X88.977 Y84.398 E6.77496
G1 X89.822 Y84.078 E6.80501
G1 X90.691 Y83.834 E6.83504
G1 X91.579 Y83.668 E6.86508
G1 X92.722 Y83.571 E6.90324
G1 X93.328 Y83.558 E6.9234
G1 X141.433 Y83.554 E8.52337
G1 X142.134 Y83.564 E8.54669
G0 F6000 X142.14 Y83.164
G1 F1200 X143.059 Y83.217 E8.57731
G1 X143.97 Y83.35 E8.60793
G1 X144.866 Y83.561 E8.63855
G1 X145.741 Y83.849 E8.66919
G1 X146.587 Y84.212 E8.6998
G1 X147.398 Y84.647 E8.73041
G1 X148.169 Y85.151 E8.76105
G1 X148.893 Y85.72 E8.79168
G1 X149.565 Y86.349 E8.82229
G1 X150.18 Y87.034 E8.85291
G1 X150.733 Y87.77 E8.88353
G1 X151.22 Y88.552 E8.91417
G1 X151.637 Y89.372 E8.94477
G1 X151.982 Y90.226 E8.9754
G1 X152.251 Y91.107 E9.00604
G1 X152.443 Y92.007 E9.03665
G1 X152.555 Y92.921 E9.06727
G1 X152.584 Y93.444 E9.0847
G1 X152.598 Y94.062 E9.10526
G1 X152.598 Y140.642 E10.65451
G1 X152.589 Y141.369 E10.67869
G1 X152.538 Y142.288 E10.70931
G1 X152.407 Y143.2 E10.73995
G1 X152.197 Y144.096 E10.77056
G1 X151.911 Y144.971 E10.80118
G1 X151.55 Y145.818 E10.8318
G1 X151.116 Y146.63 E10.86242
G1 X150.614 Y147.402 E10.89305
G1 X150.046 Y148.127 E10.92369
G1 X149.418 Y148.8 E10.9543
G1 X148.734 Y149.416 E10.98492
G1 X147.999 Y149.97 E11.01553
G1 X147.219 Y150.459 E11.04615
G1 X146.399 Y150.878 E11.07678
G1 X145.546 Y151.224 E11.10739
G1 X144.666 Y151.495 E11.13802
G1 X143.766 Y151.688 E11.16863
G1 X142.852 Y151.803 E11.19927
G1 X142.287 Y151.834 E11.21809
G1 X141.669 Y151.847 E11.23865
G1 X93.579 Y151.846 E12.83813
G1 X92.881 Y151.837 E12.86135
G1 X91.962 Y151.785 E12.89196
G1 X91.051 Y151.654 E12.92258
G1 X90.155 Y151.444 E12.95318
G1 X89.28 Y151.157 E12.98381
G1 X88.433 Y150.795 E13.01445
G1 X87.621 Y150.361 E13.04507
G1 X86.85 Y149.859 E13.07567
G1 X86.125 Y149.291 E13.1063
G1 X85.452 Y148.662 E13.13694
G1 X84.837 Y147.978 E13.16754
G1 X84.283 Y147.243 E13.19815
G1 X83.795 Y146.462 E13.22878
G1 X83.376 Y145.642 E13.25941
G1 X83.03 Y144.789 E13.29002
G1 X82.76 Y143.909 E13.32064
G1 X82.567 Y143.008 E13.35129
G1 X82.453 Y142.095 E13.38189
G1 X82.422 Y141.524 E13.40091
G1 X82.409 Y140.907 E13.42143
G1 X82.402 Y94.326 E14.97072
G1 X82.411 Y93.63 E14.99388
G1 X82.463 Y92.711 E15.02449
G1 X82.594 Y91.8 E15.0551
G1 X82.804 Y90.903 E15.08574
G1 X83.091 Y90.028 E15.11637
G1 X83.453 Y89.182 E15.14698
G1 X83.887 Y88.37 E15.1776
G1 X84.39 Y87.599 E15.20822
G1 X84.957 Y86.874 E15.23883
G1 X85.586 Y86.201 E15.26947
G1 X86.27 Y85.585 E15.30008
G1 X87.006 Y85.031 E15.33072
G1 X87.786 Y84.543 E15.36133
G1 X88.607 Y84.125 E15.39197
G1 X89.46 Y83.779 E15.42258
G1 X90.34 Y83.509 E15.4532
G1 X91.24 Y83.316 E15.48381
G1 X92.154 Y83.202 E15.51445
G1 X92.711 Y83.171 E15.533
G1 X93.328 Y83.158 E15.55353
G1 X141.439 Y83.154 E17.15371
G1 X142.14 Y83.164 E17.17703
G0 F6000 X142.146 Y82.764
G1 F1200 X143.082 Y82.817 E17.20821
G1 X144.011 Y82.95 E17.23942
G1 X144.924 Y83.162 E17.2706
G1 X145.817 Y83.45 E17.3018
G1 X146.681 Y83.814 E17.33299
G1 X147.512 Y84.25 E17.3642
G1 X148.302 Y84.755 E17.39538
G1 X149.046 Y85.325 E17.42656
G1 X149.739 Y85.957 E17.45775
G1 X150.376 Y86.646 E17.48896
G1 X150.952 Y87.386 E17.52015
G1 X151.463 Y88.173 E17.55136
G1 X151.904 Y89 E17.58253
G1 X152.274 Y89.862 E17.61373
G1 X152.569 Y90.752 E17.64492
G1 X152.787 Y91.665 E17.67614
G1 X152.926 Y92.592 E17.70732
G1 X152.984 Y93.432 E17.73532
G1 X152.998 Y94.062 E17.75628
G1 X152.998 Y140.647 E19.3057
G1 X152.989 Y141.374 E19.32988
G1 X152.938 Y142.311 E19.3611
G1 X152.806 Y143.239 E19.39227
G1 X152.597 Y144.153 E19.42346
G1 X152.31 Y145.046 E19.45465
G1 X151.948 Y145.912 E19.48587
G1 X151.514 Y146.743 E19.51705
G1 X151.01 Y147.534 E19.54825
G1 X150.441 Y148.279 E19.57943
G1 X149.81 Y148.974 E19.61065
G1 X149.123 Y149.612 E19.64183
G1 X148.384 Y150.189 E19.67302
G1 X147.598 Y150.701 E19.70422
G1 X146.772 Y151.144 E19.73539
G1 X145.91 Y151.516 E19.76662
G1 X145.021 Y151.812 E19.79778
G1 X144.109 Y152.032 E19.82899
G1 X143.182 Y152.173 E19.86017
G1 X142.298 Y152.234 E19.88964
G1 X141.669 Y152.247 E19.91057
G1 X93.574 Y152.246 E21.51021
G1 X92.876 Y152.237 E21.53343
G1 X91.94 Y152.185 E21.56461
G1 X91.011 Y152.053 E21.59582
G1 X90.097 Y151.843 E21.62701
G1 X89.204 Y151.556 E21.65821
G1 X88.339 Y151.193 E21.68941
G1 X87.508 Y150.759 E21.72059
G1 X86.717 Y150.255 E21.75179
G1 X85.972 Y149.685 E21.78299
G1 X85.278 Y149.054 E21.81418
G1 X84.641 Y148.367 E21.84535
G1 X84.064 Y147.627 E21.87656
G1 X83.552 Y146.841 E21.90776
G1 X83.109 Y146.014 E21.93896
G1 X82.738 Y145.153 E21.97014
G1 X82.442 Y144.263 E22.00134
G1 X82.223 Y143.351 E22.03253
G1 X82.082 Y142.424 E22.06372
G1 X82.022 Y141.535 E22.09335
G1 X82.009 Y140.907 E22.11425
G1 X82.002 Y94.321 E23.6637
G1 X82.011 Y93.625 E23.68685
G1 X82.063 Y92.688 E23.71807
G1 X82.195 Y91.76 E23.74924
G1 X82.405 Y90.846 E23.78044
G1 X82.692 Y89.953 E23.81163
G1 X83.055 Y89.088 E23.84283
G1 X83.49 Y88.257 E23.87403
G1 X83.993 Y87.466 E23.90521
G1 X84.563 Y86.721 E23.93641
G1 X85.194 Y86.027 E23.9676
G1 X85.882 Y85.389 E23.99881
G1 X86.621 Y84.812 E24.03
G1 X87.407 Y84.301 E24.06118
G1 X88.234 Y83.858 E24.09238
G1 X89.095 Y83.487 E24.12356
G1 X89.985 Y83.191 E24.15476
G1 X90.897 Y82.972 E24.18596
G1 X91.824 Y82.831 E24.21714
G1 X92.7 Y82.771 E24.24635
G1 X93.328 Y82.758 E24.26724
G1 X141.445 Y82.754 E25.86762
G1 X142.146 Y82.764 E25.89093
G1 F2700 E20.89093
;MESH:ControlsBox2.stl
G0 F6000 X121.099 Y110.425
G0 X120.941 Y110.625
G0 X120.421 Y111.258
G0 X120.414 Y111.325
G0 X108.038 Y127.594
G0 X109.386 Y127.031
G0 X109.405 Y128.904
G0 X109.318 Y129.788
G0 X109.06 Y130.64
G0 X108.64 Y131.425
G0 X108.076 Y132.112
G0 X107.52 Y132.568
G0 X105.784 Y133.512
;TYPE:WALL-INNER
G1 F2700 E25.89093
G1 F1200 X106.666 Y133.245 E25.92158
G1 X107.478 Y132.81 E25.95222
G1 X108.19 Y132.226 E25.98285
G1 X108.774 Y131.514 E26.01348
G1 X109.209 Y130.702 E26.04412
G1 X109.476 Y129.82 E26.07477
G1 X109.566 Y128.904 E26.10538
G1 X109.476 Y127.988 E26.13599
G1 X109.209 Y127.105 E26.16668
G1 X108.774 Y126.293 E26.19731
G1 X108.19 Y125.581 E26.22794
G1 X107.478 Y124.997 E26.25857
G1 X106.666 Y124.563 E26.28919
G1 X105.784 Y124.296 E26.31984
G1 X104.87 Y124.205 E26.35039
G1 X104.059 Y124.284 E26.37749
G1 X103.947 Y124.297 E26.38125
G1 X103.069 Y124.563 E26.41176
G1 X102.257 Y124.997 E26.44238
G1 X101.545 Y125.581 E26.47301
G1 X100.961 Y126.293 E26.50364
G1 X100.527 Y127.105 E26.53426
G1 X100.259 Y127.988 E26.56495
G1 X100.169 Y128.904 E26.59556
G1 X100.259 Y129.82 E26.62618
G1 X100.527 Y130.702 E26.65684
G1 X100.961 Y131.514 E26.68746
G1 X101.545 Y132.226 E26.71809
G1 X102.257 Y132.81 E26.74872
G1 X103.069 Y133.245 E26.77936
G1 X103.952 Y133.512 E26.81004
G1 X104.868 Y133.602 E26.84065
G1 X105.784 Y133.512 E26.87126
G0 F6000 X105.706 Y133.118
;TYPE:WALL-OUTER
G1 F1200 X106.512 Y132.874 E26.89927
G1 X107.255 Y132.476 E26.92731
G1 X107.906 Y131.942 E26.95531
G1 X108.44 Y131.291 E26.98332
G1 X108.838 Y130.548 E27.01135
G1 X109.082 Y129.742 E27.03936
G1 X109.164 Y128.904 E27.06737
G1 X109.082 Y128.066 E27.09537
G1 X108.838 Y127.259 E27.12341
G1 X108.44 Y126.516 E27.15145
G1 X107.906 Y125.865 E27.17945
G1 X107.255 Y125.331 E27.20746
G1 X106.512 Y124.934 E27.23547
G1 X105.706 Y124.69 E27.26348
G1 X104.87 Y124.607 E27.29143
G1 X104.1 Y124.682 E27.31716
G1 X104.028 Y124.69 E27.31957
G1 X103.223 Y124.934 E27.34754
G1 X102.48 Y125.331 E27.37556
G1 X101.829 Y125.865 E27.40357
G1 X101.295 Y126.516 E27.43157
G1 X100.898 Y127.259 E27.45959
G1 X100.653 Y128.066 E27.48764
G1 X100.571 Y128.904 E27.51565
G1 X100.653 Y129.742 E27.54365
G1 X100.898 Y130.548 E27.57167
G1 X101.295 Y131.291 E27.59969
G1 X101.829 Y131.942 E27.62769
G1 X102.48 Y132.476 E27.6557
G1 X103.223 Y132.874 E27.68373
G1 X104.03 Y133.118 E27.71177
G1 X104.868 Y133.2 E27.73978
G1 X105.706 Y133.118 E27.76779
G0 F6000 X105.791 Y133.549
G1 F2700 E22.76779
G0 F6000 X107.389 Y132.676
G0 X108.076 Y132.112
G0 X108.64 Y131.425
G0 X109.06 Y130.64
G0 X109.318 Y129.788
G0 X109.405 Y128.904
G0 X109.356 Y128.404
G0 X108.933 Y126.187
G0 X107.719 Y127.002
G0 X116.653 Y112.399
G0 X116.372 Y113.833
G0 X117.471 Y113.75
;TYPE:WALL-INNER
G1 F2700 E27.76779
G1 F1200 X118.528 Y113.646 E27.80311
G1 X118.643 Y113.613 E27.80709
G1 X119.554 Y113.336 E27.83876
G1 X120.495 Y112.833 E27.87425
G1 X121.319 Y112.156 E27.90972
G1 X121.996 Y111.332 E27.94519
G1 X122.499 Y110.391 E27.98068
G1 X122.808 Y109.37 E28.01616
G1 X122.913 Y108.309 E28.05162
G1 X122.809 Y107.252 E28.08694
G1 X122.776 Y107.137 E28.09092
G1 X122.499 Y106.226 E28.12259
G1 X121.997 Y105.288 E28.15798
G1 X121.319 Y104.461 E28.19355
G1 X120.495 Y103.785 E28.229
G1 X119.554 Y103.282 E28.26448
G1 X118.532 Y102.972 E28.30001
G1 X117.473 Y102.867 E28.3354
G1 X116.526 Y102.959 E28.36705
G1 X116.405 Y102.973 E28.3711
G1 X115.389 Y103.282 E28.40642
G1 X114.448 Y103.785 E28.44191
G1 X113.624 Y104.461 E28.47736
G1 X112.947 Y105.286 E28.51285
G1 X112.444 Y106.226 E28.54831
G1 X112.135 Y107.248 E28.58382
G1 X112.03 Y108.309 E28.61928
G1 X112.135 Y109.37 E28.65474
G1 X112.444 Y110.391 E28.69022
G1 X112.947 Y111.332 E28.72571
G1 X113.624 Y112.156 E28.76118
G1 X114.448 Y112.833 E28.79665
G1 X115.389 Y113.336 E28.83214
G1 X116.41 Y113.645 E28.86762
G1 X117.471 Y113.75 E28.90308
G0 F6000 X117.471 Y113.348
;TYPE:WALL-OUTER
G1 F1200 X118.453 Y113.251 E28.9359
G1 X118.53 Y113.229 E28.93857
G1 X119.4 Y112.965 E28.96881
G1 X120.272 Y112.499 E29.00169
G1 X121.035 Y111.872 E29.03454
G1 X121.662 Y111.109 E29.06738
G1 X122.128 Y110.237 E29.10027
G1 X122.414 Y109.292 E29.13311
G1 X122.511 Y108.309 E29.16596
G1 X122.414 Y107.327 E29.19878
G1 X122.392 Y107.25 E29.20144
G1 X122.128 Y106.38 E29.23168
G1 X121.662 Y105.51 E29.26451
G1 X121.612 Y105.448 E29.26716
G1 X121.035 Y104.745 E29.29741
G1 X120.272 Y104.119 E29.33023
G1 X119.4 Y103.653 E29.36312
G1 X118.454 Y103.366 E29.396
G1 X117.473 Y103.269 E29.42879
G1 X116.567 Y103.357 E29.45906
G1 X116.486 Y103.366 E29.46177
G1 X115.543 Y103.653 E29.49456
G1 X114.671 Y104.119 E29.52744
G1 X113.908 Y104.745 E29.56027
G1 X113.281 Y105.509 E29.59314
G1 X112.815 Y106.38 E29.62599
G1 X112.529 Y107.326 E29.65887
G1 X112.432 Y108.309 E29.69172
G1 X112.529 Y109.292 E29.72457
G1 X112.815 Y110.237 E29.75741
G1 X113.281 Y111.109 E29.7903
G1 X113.908 Y111.872 E29.82314
G1 X114.671 Y112.499 E29.85599
G1 X115.543 Y112.965 E29.88887
G1 X116.488 Y113.251 E29.92171
G1 X117.471 Y113.348 E29.95457
G0 F6000 X117.471 Y113.788
G1 F2700 E24.95457
G0 F6000 X118.565 Y113.834
G0 X118.288 Y112.399
G0 X127.245 Y127.002
G0 X126.031 Y126.187
G0 X125.646 Y128.02
G0 X125.558 Y128.904
G0 X125.646 Y129.788
G0 X125.904 Y130.64
G0 X126.324 Y131.425
G0 X126.888 Y132.112
G0 X127.444 Y132.568
G0 X129.18 Y133.512
;TYPE:WALL-INNER
G1 F2700 E29.95457
G1 F1200 X130.096 Y133.602 E29.98518
G1 X131.012 Y133.512 E30.01579
G1 X131.895 Y133.245 E30.04647
G1 X132.708 Y132.81 E30.07714
G1 X133.418 Y132.226 E30.10772
G1 X134.003 Y131.514 E30.13837
G1 X134.437 Y130.702 E30.16899
G1 X134.704 Y129.82 E30.19964
G1 X134.795 Y128.904 E30.23026
G1 X134.704 Y127.988 E30.26087
G1 X134.437 Y127.105 E30.29155
G1 X134.003 Y126.293 E30.32218
G1 X133.418 Y125.581 E30.35283
G1 X132.707 Y124.997 E30.38343
G1 X131.895 Y124.563 E30.41405
G1 X131.012 Y124.296 E30.44473
G1 X130.098 Y124.205 E30.47528
G1 X129.287 Y124.284 E30.50239
G1 X129.175 Y124.297 E30.50614
G1 X128.298 Y124.563 E30.53662
G1 X127.486 Y124.997 E30.56724
G1 X126.774 Y125.581 E30.59787
G1 X126.19 Y126.293 E30.6285
G1 X125.755 Y127.105 E30.65914
G1 X125.488 Y127.988 E30.68982
G1 X125.397 Y128.904 E30.72043
G1 X125.488 Y129.82 E30.75105
G1 X125.755 Y130.702 E30.7817
G1 X126.19 Y131.514 E30.81234
G1 X126.774 Y132.226 E30.84297
G1 X127.486 Y132.81 E30.87359
G1 X128.298 Y133.245 E30.90423
G1 X129.18 Y133.512 E30.93488
G0 F6000 X129.258 Y133.118
;TYPE:WALL-OUTER
G1 F1200 X130.096 Y133.2 E30.96289
G1 X130.934 Y133.118 E30.99089
G1 X131.741 Y132.874 E31.01893
G1 X132.484 Y132.476 E31.04697
G1 X133.134 Y131.942 E31.07495
G1 X133.669 Y131.291 E31.10297
G1 X134.066 Y130.548 E31.13099
G1 X134.31 Y129.742 E31.159
G1 X134.393 Y128.904 E31.18701
G1 X134.31 Y128.066 E31.21502
G1 X134.066 Y127.259 E31.24306
G1 X133.669 Y126.516 E31.27108
G1 X133.134 Y125.865 E31.2991
G1 X132.484 Y125.331 E31.32708
G1 X131.741 Y124.934 E31.3551
G1 X130.934 Y124.69 E31.38314
G1 X130.098 Y124.607 E31.41109
G1 X129.328 Y124.682 E31.43682
G1 X129.256 Y124.69 E31.43923
G1 X128.452 Y124.934 E31.46717
G1 X127.709 Y125.331 E31.49519
G1 X127.058 Y125.865 E31.5232
G1 X126.524 Y126.516 E31.5512
G1 X126.126 Y127.259 E31.57924
G1 X125.882 Y128.066 E31.60728
G1 X125.799 Y128.904 E31.63528
G1 X125.882 Y129.742 E31.66329
