;FLAVOR:Marlin
;TIME:4434
;Filament used: 3.95805m
;Layer height: 0.2
;MINX:69.17
;MINY:67.31
;MINZ:0.2
;MAXX:165.83
;MAXY:167.69
;MAXZ:7.6
;Generated with Cura_SteamEngine 4.6.2
M140 S50
M105
M190 S50
M104 S210
M105
M109 S210
M82 ;absolute extrusion mode
; Ender 3 Custom Start G-code
G92 E0 ; Reset Extruder
G28 ; Home all axes
G1 Z2.0 F3000 ; Move Z Axis up little to prevent scratching of Heat Bed
G1 X0.1 Y20 Z0.3 F5000.0 ; Move to start position
G1 X0.1 Y200.0 Z0.3 F1500.0 E15 ; Draw the first line
G1 X0.4 Y200.0 Z0.3 F5000.0 ; Move to side a little
G1 X0.4 Y20 Z0.3 F1500.0 E30 ; Draw the second line
G92 E0 ; Reset Extruder
G1 Z2.0 F3000 ; Move Z Axis up little to prevent scratching of Heat Bed
G1 X5 Y20 Z0.3 F5000.0 ; Move over to prevent blob squish
G92 E0
G92 E0
G1 F2700 E-5
;LAYER_COUNT:38
;LAYER:0
M107
G0 F6000 X154.967 Y68.121 Z0.2
;TYPE:SKIRT
G1 F2700 E0
G1 F1200 X155.869 Y68.174 E0.03005
G1 X156.762 Y68.306 E0.06008
G1 X157.64 Y68.517 E0.09011
G1 X158.496 Y68.805 E0.12015
G1 X159.323 Y69.167 E0.15018
G1 X160.115 Y69.602 E0.18023
G1 X160.866 Y70.104 E0.21027
G1 X161.569 Y70.671 E0.24031
G1 X162.219 Y71.298 E0.27035
G1 X162.811 Y71.98 E0.30039
G1 X163.341 Y72.711 E0.33042
G1 X163.803 Y73.487 E0.36046
G1 X164.196 Y74.3 E0.39049
G1 X164.514 Y75.145 E0.42052
G1 X164.757 Y76.015 E0.45056
G1 X164.922 Y76.903 E0.4806
G1 X165.017 Y78.033 E0.51832
G1 X165.03 Y78.64 E0.53851
G1 X165.029 Y120.255 E1.92264
G1 X165.019 Y120.953 E1.94585
G1 X164.966 Y121.855 E1.97591
G1 X164.834 Y122.748 E2.00593
G1 X164.623 Y123.626 E2.03596
G1 X164.335 Y124.482 E2.066
G1 X163.973 Y125.309 E2.09603
G1 X163.538 Y126.101 E2.12608
G1 X163.248 Y126.553 E2.14394
G1 X163.053 Y126.839 E2.15546
G1 X161.573 Y129.03 E2.2434
G1 X160.212 Y131.171 E2.32778
G1 X158.908 Y133.36 E2.41252
G1 X157.678 Y135.563 E2.49644
G1 X156.493 Y137.835 E2.58167
G1 X155.39 Y140.103 E2.66555
G1 X154.339 Y142.428 E2.75042
G1 X153.357 Y144.772 E2.83494
G1 X152.452 Y147.128 E2.91889
G1 X151.599 Y149.541 E3.00401
G1 X150.83 Y151.934 E3.08761
G1 X150.117 Y154.383 E3.17245
G1 X149.477 Y156.846 E3.25709
G1 X149.083 Y158.551 E3.31529
G1 X148.95 Y159.096 E3.33395
G1 X148.697 Y159.963 E3.36399
G1 X148.369 Y160.804 E3.39401
G1 X147.967 Y161.613 E3.42406
G1 X147.496 Y162.384 E3.45411
G1 X146.958 Y163.109 E3.48413
G1 X146.358 Y163.784 E3.51417
G1 X145.701 Y164.404 E3.54422
G1 X144.992 Y164.962 E3.57423
G1 X144.235 Y165.456 E3.60429
G1 X143.439 Y165.881 E3.6343
G1 X142.607 Y166.234 E3.66436
G1 X141.748 Y166.512 E3.69439
G1 X140.868 Y166.713 E3.72442
G1 X139.973 Y166.835 E3.75446
G1 X139.33 Y166.874 E3.77588
G1 X138.729 Y166.887 E3.79588
G1 X132.948 Y166.89 E3.98816
G1 X101.025 Y166.887 E5.04992
G1 X100.344 Y166.877 E5.07257
G1 X99.443 Y166.824 E5.10259
G1 X98.549 Y166.691 E5.13265
G1 X97.671 Y166.48 E5.16269
G1 X96.815 Y166.192 E5.19273
G1 X95.988 Y165.829 E5.22276
G1 X95.197 Y165.394 E5.25279
G1 X94.446 Y164.892 E5.28283
G1 X93.744 Y164.325 E5.31285
G1 X93.094 Y163.698 E5.34289
G1 X92.551 Y163.077 E5.37032
G1 X92.203 Y162.645 E5.38877
G1 X91.95 Y162.318 E5.40252
G1 X90.964 Y160.987 E5.45762
G1 X89.425 Y159.029 E5.54045
G1 X87.773 Y157.045 E5.62632
G1 X86.115 Y155.167 E5.70964
G1 X84.359 Y153.285 E5.79525
G1 X82.58 Y151.484 E5.87945
G1 X80.745 Y149.729 E5.9639
G1 X78.884 Y148.047 E6.04733
G1 X76.91 Y146.361 E6.13368
G1 X74.985 Y144.809 E6.21592
G1 X73.887 Y143.948 E6.26233
G1 X73.202 Y143.359 E6.29238
G1 X72.571 Y142.713 E6.32241
G1 X72 Y142.013 E6.35246
G1 X71.493 Y141.266 E6.38248
G1 X71.055 Y140.476 E6.41253
G1 X70.688 Y139.651 E6.44256
G1 X70.395 Y138.797 E6.47259
G1 X70.179 Y137.92 E6.50263
G1 X70.041 Y137.027 E6.53268
G1 X69.987 Y136.266 E6.55806
G1 X69.976 Y135.941 E6.56888
G1 X69.97 Y135.596 E6.58035
G1 X69.971 Y99.969 E7.76531
G1 X69.981 Y99.28 E7.78823
G1 X70.034 Y98.378 E7.81828
G1 X70.167 Y97.485 E7.84831
G1 X70.378 Y96.607 E7.87834
G1 X70.666 Y95.751 E7.90838
G1 X71.028 Y94.924 E7.93841
G1 X71.463 Y94.132 E7.96846
G1 X71.965 Y93.382 E7.99848
G1 X72.532 Y92.679 E8.02852
G1 X73.159 Y92.029 E8.05856
G1 X73.841 Y91.437 E8.08859
G1 X74.573 Y90.907 E8.11865
G1 X75.349 Y90.445 E8.14869
G1 X76.249 Y90.016 E8.18185
G1 X77.706 Y89.407 E8.23437
G1 X80.083 Y88.368 E8.32066
G1 X82.356 Y87.296 E8.40424
G1 X84.652 Y86.134 E8.48983
G1 X86.878 Y84.927 E8.57405
G1 X89.058 Y83.663 E8.65786
G1 X91.23 Y82.32 E8.7428
G1 X93.365 Y80.915 E8.82781
G1 X95.439 Y79.465 E8.91198
G1 X97.476 Y77.954 E8.99633
G1 X99.472 Y76.383 E9.08081
G1 X101.415 Y74.762 E9.16498
G1 X103.302 Y73.095 E9.24872
G1 X105.669 Y70.88 E9.35654
G1 X106.355 Y70.293 E9.38657
G1 X107.091 Y69.769 E9.41662
G1 X107.869 Y69.311 E9.44665
G1 X108.686 Y68.925 E9.4767
G1 X109.533 Y68.612 E9.50674
G1 X110.404 Y68.375 E9.53676
G1 X111.293 Y68.216 E9.5668
G1 X112.418 Y68.129 E9.60432
G1 X113.42 Y68.11 E9.63766
G1 X154.269 Y68.111 E10.9963
G1 X154.967 Y68.121 E11.01952
G0 F6000 X154.973 Y67.721
G1 F1200 X155.892 Y67.774 E11.05014
G1 X156.803 Y67.907 E11.08076
G1 X157.699 Y68.118 E11.11137
G1 X158.573 Y68.406 E11.14198
G1 X159.42 Y68.769 E11.17263
G1 X160.231 Y69.204 E11.20324
G1 X161.001 Y69.708 E11.23385
G1 X161.725 Y70.277 E11.26447
G1 X162.397 Y70.907 E11.29511
G1 X163.012 Y71.592 E11.32573
G1 X163.565 Y72.328 E11.35635
G1 X164.052 Y73.109 E11.38696
G1 X164.469 Y73.93 E11.41759
G1 X164.814 Y74.784 E11.44822
G1 X165.083 Y75.664 E11.47883
G1 X165.275 Y76.565 E11.50947
G1 X165.388 Y77.478 E11.54007
G1 X165.417 Y78.022 E11.55819
G1 X165.43 Y78.64 E11.57875
G1 X165.429 Y120.261 E12.96307
G1 X165.419 Y120.959 E12.98628
G1 X165.366 Y121.878 E13.0169
G1 X165.233 Y122.789 E13.04752
G1 X165.022 Y123.685 E13.07814
G1 X164.734 Y124.559 E13.10874
G1 X164.371 Y125.406 E13.13939
G1 X163.936 Y126.217 E13.17
G1 X163.578 Y126.778 E13.19214
G1 X163.383 Y127.064 E13.20365
G1 X161.926 Y129.221 E13.29023
G1 X160.551 Y131.384 E13.37547
G1 X159.252 Y133.565 E13.45991
G1 X158.039 Y135.737 E13.54265
G1 X156.85 Y138.016 E13.62814
G1 X155.743 Y140.293 E13.71235
G1 X154.714 Y142.568 E13.7954
G1 X153.719 Y144.945 E13.88111
G1 X152.83 Y147.256 E13.96346
G1 X151.982 Y149.659 E14.04822
G1 X151.212 Y152.053 E14.13186
G1 X150.503 Y154.49 E14.21627
G1 X149.866 Y156.939 E14.30044
G1 X149.472 Y158.646 E14.35871
G1 X149.339 Y159.191 E14.37737
G1 X149.082 Y160.075 E14.40798
G1 X148.749 Y160.934 E14.43863
G1 X148.343 Y161.76 E14.46924
G1 X147.867 Y162.548 E14.49986
G1 X147.325 Y163.292 E14.53047
G1 X146.72 Y163.986 E14.5611
G1 X146.056 Y164.624 E14.59172
G1 X145.341 Y165.203 E14.62232
G1 X144.577 Y165.717 E14.65295
G1 X143.772 Y166.164 E14.68358
G1 X142.931 Y166.538 E14.71419
G1 X142.061 Y166.839 E14.74481
G1 X141.167 Y167.063 E14.77546
G1 X140.258 Y167.208 E14.80608
G1 X139.342 Y167.274 E14.83662
G1 X138.73 Y167.287 E14.85698
G1 X132.949 Y167.29 E15.04926
G1 X101.019 Y167.287 E16.11126
G1 X100.338 Y167.277 E16.13391
G1 X99.419 Y167.223 E16.16453
G1 X98.508 Y167.09 E16.19515
G1 X97.612 Y166.879 E16.22576
G1 X96.738 Y166.59 E16.25638
G1 X95.892 Y166.227 E16.287
G1 X95.081 Y165.792 E16.31761
G1 X94.31 Y165.288 E16.34825
G1 X93.587 Y164.718 E16.37887
G1 X92.915 Y164.089 E16.40948
G1 X92.239 Y163.328 E16.44334
G1 X91.891 Y162.896 E16.46179
G1 X91.629 Y162.556 E16.47606
G1 X90.661 Y161.249 E16.53016
G1 X89.102 Y159.266 E16.61406
G1 X87.467 Y157.303 E16.69903
G1 X85.805 Y155.42 E16.78256
G1 X84.083 Y153.573 E16.86655
G1 X82.32 Y151.789 E16.94997
G1 X80.466 Y150.015 E17.03532
G1 X78.62 Y148.347 E17.11807
G1 X76.665 Y146.678 E17.20356
G1 X74.671 Y145.07 E17.28876
G1 X73.64 Y144.262 E17.33233
G1 X72.941 Y143.663 E17.36295
G1 X72.297 Y143.006 E17.39355
G1 X71.711 Y142.295 E17.42419
G1 X71.19 Y141.536 E17.45481
G1 X70.737 Y140.735 E17.48542
G1 X70.355 Y139.897 E17.51605
G1 X70.047 Y139.029 E17.54668
G1 X69.816 Y138.138 E17.5773
G1 X69.662 Y137.231 E17.60789
G1 X69.587 Y136.28 E17.63962
G1 X69.576 Y135.955 E17.65044
G1 X69.57 Y135.596 E17.66238
G1 X69.571 Y99.963 E18.84754
G1 X69.581 Y99.274 E18.87046
G1 X69.634 Y98.355 E18.90107
G1 X69.767 Y97.444 E18.9317
G1 X69.979 Y96.548 E18.96232
G1 X70.267 Y95.674 E18.99293
G1 X70.63 Y94.828 E19.02355
G1 X71.065 Y94.016 E19.05418
G1 X71.569 Y93.246 E19.08479
G1 X72.138 Y92.522 E19.11542
G1 X72.768 Y91.85 E19.14606
G1 X73.453 Y91.236 E19.17665
G1 X74.19 Y90.683 E19.2073
G1 X74.971 Y90.196 E19.23791
G1 X76.094 Y89.647 E19.27949
G1 X77.519 Y89.052 E19.33085
G1 X79.93 Y87.998 E19.41837
G1 X82.183 Y86.935 E19.50122
G1 X84.459 Y85.783 E19.58607
G1 X86.708 Y84.564 E19.67115
G1 X88.853 Y83.32 E19.75362
G1 X91.005 Y81.989 E19.83778
G1 X93.121 Y80.597 E19.92203
G1 X95.21 Y79.136 E20.00681
G1 X97.236 Y77.633 E20.09072
G1 X99.235 Y76.06 E20.17532
G1 X101.139 Y74.471 E20.2578
G1 X103.047 Y72.787 E20.34244
G1 X105.396 Y70.588 E20.44946
G1 X106.095 Y69.989 E20.48008
G1 X106.843 Y69.453 E20.51069
G1 X107.635 Y68.983 E20.54132
G1 X108.465 Y68.584 E20.57195
G1 X109.326 Y68.258 E20.60257
G1 X110.212 Y68.009 E20.63318
G1 X111.117 Y67.837 E20.66382
G1 X112.409 Y67.73 E20.70694
G1 X113.42 Y67.71 E20.74057
G1 X154.275 Y67.711 E22.09941
G1 X154.973 Y67.721 E22.12263
G1 F2700 E17.12263
G0 F6000 X159.617 Y133.732
G1 F2700 E22.12263
G1 F1200 X158.37 Y135.964 E22.20767
G1 X157.221 Y138.169 E22.29037
G1 X156.109 Y140.454 E22.37489
G1 X155.071 Y142.752 E22.45876
G1 X154.102 Y145.065 E22.54217
G1 X153.193 Y147.429 E22.6264
G1 X152.364 Y149.778 E22.70926
G1 X151.593 Y152.174 E22.79297
G1 X150.888 Y154.596 E22.87687
G1 X150.259 Y157.016 E22.96003
G1 X149.86 Y158.741 E23.01892
G1 X149.727 Y159.286 E23.03758
G1 X149.466 Y160.187 E23.06878
G1 X149.13 Y161.062 E23.09996
G1 X148.72 Y161.905 E23.13113
G1 X148.239 Y162.711 E23.16235
G1 X147.692 Y163.473 E23.19355
G1 X147.081 Y164.185 E23.22476
G1 X146.413 Y164.842 E23.25592
G1 X145.691 Y165.441 E23.28712
G1 X144.92 Y165.975 E23.31832
G1 X144.107 Y166.442 E23.3495
G1 X143.256 Y166.838 E23.38072
G1 X142.376 Y167.16 E23.41188
G1 X141.471 Y167.406 E23.44308
G1 X140.548 Y167.574 E23.47428
G1 X139.353 Y167.674 E23.51417
G1 X138.73 Y167.687 E23.53489
G1 X132.949 Y167.69 E23.72717
G1 X101.013 Y167.687 E24.78936
G1 X100.332 Y167.677 E24.81202
G1 X99.396 Y167.623 E24.8432
G1 X98.468 Y167.49 E24.87438
G1 X97.554 Y167.278 E24.90559
G1 X96.662 Y166.989 E24.93677
G1 X95.798 Y166.625 E24.96796
G1 X94.967 Y166.189 E24.99917
G1 X94.177 Y165.683 E25.03037
G1 X93.433 Y165.113 E25.06154
G1 X92.74 Y164.481 E25.09274
G1 X91.928 Y163.579 E25.13311
G1 X91.58 Y163.147 E25.15156
G1 X91.308 Y162.795 E25.16635
G1 X90.328 Y161.472 E25.22111
G1 X88.796 Y159.523 E25.30357
G1 X87.176 Y157.577 E25.38778
G1 X85.514 Y155.695 E25.47129
G1 X83.788 Y153.845 E25.55544
G1 X82.024 Y152.059 E25.63894
G1 X80.221 Y150.335 E25.72191
G1 X78.32 Y148.616 E25.80715
G1 X76.418 Y146.992 E25.89034
G1 X74.459 Y145.413 E25.97402
G1 X73.393 Y144.577 E26.01908
G1 X72.681 Y143.967 E26.05026
G1 X72.022 Y143.299 E26.08147
G1 X71.424 Y142.577 E26.11265
G1 X70.888 Y141.807 E26.14386
G1 X70.421 Y140.994 E26.17504
G1 X70.024 Y140.144 E26.20625
G1 X69.701 Y139.264 E26.23742
G1 X69.455 Y138.359 E26.26862
G1 X69.286 Y137.437 E26.29979
G1 X69.187 Y136.293 E26.33799
G1 X69.176 Y135.968 E26.3488
G1 X69.17 Y135.596 E26.36118
G1 X69.171 Y99.957 E27.54653
G1 X69.181 Y99.268 E27.56945
G1 X69.235 Y98.332 E27.60064
G1 X69.368 Y97.404 E27.63182
G1 X69.58 Y96.49 E27.66302
G1 X69.868 Y95.598 E27.6942
G1 X70.232 Y94.733 E27.72541
G1 X70.668 Y93.903 E27.7566
G1 X71.173 Y93.113 E27.78778
G1 X71.744 Y92.369 E27.81897
G1 X72.376 Y91.676 E27.85017
G1 X73.065 Y91.039 E27.88138
G1 X73.805 Y90.463 E27.91257
G1 X74.592 Y89.953 E27.94376
G1 X75.42 Y89.511 E27.97498
G1 X75.94 Y89.278 E27.99393
G1 X77.385 Y88.675 E28.04601
G1 X79.749 Y87.641 E28.13183
G1 X82.041 Y86.56 E28.21611
G1 X84.252 Y85.441 E28.29853
G1 X86.495 Y84.224 E28.38341
G1 X88.647 Y82.977 E28.46613
G1 X90.796 Y81.648 E28.55017
G1 X92.919 Y80.251 E28.6347
G1 X94.965 Y78.82 E28.71774
G1 X96.978 Y77.326 E28.80112
G1 X98.955 Y75.771 E28.88478
G1 X100.922 Y74.13 E28.96998
G1 X102.773 Y72.496 E29.0521
G1 X105.123 Y70.296 E29.15917
G1 X105.834 Y69.685 E29.19035
G1 X106.595 Y69.137 E29.22154
G1 X107.4 Y68.655 E29.25274
G1 X108.243 Y68.244 E29.28394
G1 X109.118 Y67.906 E29.31514
G1 X110.018 Y67.644 E29.34631
G1 X110.938 Y67.46 E29.37752
G1 X111.87 Y67.354 E29.40872
G1 X112.4 Y67.33 E29.42636
G1 X113.42 Y67.31 E29.46029
G1 X154.281 Y67.311 E30.81934
G1 X154.979 Y67.321 E30.84255
G1 X155.915 Y67.375 E30.87374
G1 X156.843 Y67.507 E30.90491
G1 X157.757 Y67.719 E30.93612
G1 X158.649 Y68.008 E30.96731
G1 X159.514 Y68.371 E30.99851
G1 X160.344 Y68.807 E31.02969
G1 X161.135 Y69.312 E31.0609
G1 X161.879 Y69.883 E31.0921
G1 X162.572 Y70.515 E31.12329
G1 X163.209 Y71.203 E31.15448
G1 X163.784 Y71.944 E31.18567
G1 X164.295 Y72.73 E31.21685
G1 X164.737 Y73.558 E31.24807
G1 X165.106 Y74.42 E31.27926
G1 X165.401 Y75.31 E31.31044
G1 X165.619 Y76.222 E31.34163
G1 X165.759 Y77.15 E31.37285
G1 X165.817 Y78.011 E31.40155
G1 X165.83 Y78.64 E31.42247
G1 X165.829 Y120.267 E32.80699
G1 X165.819 Y120.965 E32.83021
G1 X165.765 Y121.901 E32.86139
G1 X165.633 Y122.829 E32.89257
G1 X165.421 Y123.743 E32.92378
G1 X165.132 Y124.635 E32.95496
G1 X164.769 Y125.5 E32.98616
G1 X164.333 Y126.33 E33.01735
G1 X163.909 Y127.004 E33.04383
G1 X163.714 Y127.29 E33.05534
G1 X162.246 Y129.463 E33.14256
G1 X160.888 Y131.597 E33.22669
G1 X159.617 Y133.732 E33.30934
G1 F2700 E28.30934
;MESH:innerDown.stl
G0 F6000 X139.713 Y133.731
G0 X138.648 Y133.732
G0 X138.267 Y155.906
G0 X101.071 Y156.088
;TYPE:WALL-INNER
G1 F2700 E33.30934
G1 F1200 X101.071 Y135.326 E33.99988
G1 X80.77 Y135.326 E34.6751
G1 X80.77 Y100.019 E35.84941
G1 X112.995 Y100.019 E36.92122
G1 X113.236 Y78.91 E37.62335
G1 X154.23 Y78.91 E38.98682
G1 X154.23 Y120.216 E40.36066
G1 X138.647 Y120.216 E40.87896
G1 X138.448 Y120.216 E40.88557
G1 X138.448 Y120.415 E40.88986
G1 X138.449 Y156.088 E42.07635
G1 X132.943 Y156.09 E42.25948
G1 X101.071 Y156.088 E43.31954
G0 F6000 X100.671 Y156.488
;TYPE:WALL-OUTER
G1 F1200 X100.671 Y135.726 E44.01009
G1 X80.37 Y135.726 E44.6853
G1 X80.37 Y99.619 E45.88623
G1 X112.6 Y99.619 E46.9582
G1 X112.841 Y78.51 E47.66034
G1 X154.63 Y78.51 E49.05024
G1 X154.63 Y120.616 E50.45069
G1 X138.848 Y120.616 E50.97561
G1 X138.849 Y156.488 E52.16871
G1 X132.943 Y156.49 E52.36515
G1 X100.671 Y156.488 E53.43852
G0 F6000 X100.941 Y156.218
G0 X101.181 Y155.698
G0 X101.461 Y155.698
;TYPE:SKIN
G1 F1200 X101.461 Y134.936 E54.12907
G1 X81.16 Y134.936 E54.80428
G1 X81.16 Y100.409 E55.95265
G1 X113.381 Y100.409 E57.02433
G1 X113.622 Y79.3 E57.72646
G1 X153.84 Y79.3 E59.06412
G1 X153.84 Y119.826 E60.41202
G1 X138.058 Y119.826 E60.93693
G1 X138.059 Y155.698 E62.13004
G1 X132.943 Y155.7 E62.3002
G1 X101.461 Y155.698 E63.34729
G0 F6000 X101.797 Y155.537
G1 F1200 X101.62 Y155.36 E63.35562
G0 F6000 X101.62 Y154.794
G1 F1200 X102.362 Y155.537 E63.39054
G0 F6000 X102.928 Y155.537
G1 F1200 X101.62 Y154.229 E63.45207
G0 F6000 X101.62 Y153.663
G1 F1200 X103.494 Y155.537 E63.54021
G0 F6000 X104.059 Y155.537
G1 F1200 X101.62 Y153.097 E63.65496
G0 F6000 X101.62 Y152.532
G1 F1200 X104.625 Y155.537 E63.79631
G0 F6000 X105.191 Y155.537
G1 F1200 X101.62 Y151.966 E63.96427
G0 F6000 X101.62 Y151.4
G1 F1200 X105.757 Y155.537 E64.15887
G0 F6000 X106.322 Y155.537
G1 F1200 X101.62 Y150.835 E64.38003
G0 F6000 X101.62 Y150.269
G1 F1200 X106.888 Y155.537 E64.62782
G0 F6000 X107.454 Y155.537
G1 F1200 X101.62 Y149.703 E64.90224
G0 F6000 X101.62 Y149.138
G1 F1200 X108.019 Y155.537 E65.20323
G0 F6000 X108.585 Y155.537
G1 F1200 X101.62 Y148.572 E65.53084
G0 F6000 X101.62 Y148.006
G1 F1200 X109.151 Y155.537 E65.88507
