;FLAVOR:Marlin
;TIME:5147
;Filament used: 4.36427m
;Layer height: 0.2
;MINX:87.208
;MINY:84.537
;MINZ:0.2
;MAXX:147.791
;MAXY:150.464
;MAXZ:42.2
;Generated with Cura_SteamEngine 4.6.2
M140 S50
M105
M190 S50
M104 S210
M105
M109 S210
M82 ;absolute extrusion mode
; Ender 3 Custom Start G-code
G92 E0 ; Reset Extruder
G28 ; Home all axes
G1 Z2.0 F3000 ; Move Z Axis up little to prevent scratching of Heat Bed
G1 X0.1 Y20 Z0.3 F5000.0 ; Move to start position
G1 X0.1 Y200.0 Z0.3 F1500.0 E15 ; Draw the first line
G1 X0.4 Y200.0 Z0.3 F5000.0 ; Move to side a little
G1 X0.4 Y20 Z0.3 F1500.0 E30 ; Draw the second line
G92 E0 ; Reset Extruder
G1 Z2.0 F3000 ; Move Z Axis up little to prevent scratching of Heat Bed
G1 X5 Y20 Z0.3 F5000.0 ; Move over to prevent blob squish
G92 E0
G92 E0
G1 F2700 E-5
;LAYER_COUNT:211
;LAYER:0
M107
G0 F6000 X110.261 Y85.347 Z0.2
;TYPE:SKIRT
G1 F2700 E0
G1 F1200 X111.162 Y85.4 E0.03002
G1 X112.056 Y85.533 E0.06008
G1 X112.934 Y85.744 E0.09011
G1 X113.79 Y86.032 E0.12015
G1 X114.617 Y86.395 E0.15019
G1 X115.408 Y86.829 E0.1802
G1 X116.159 Y87.332 E0.21026
G1 X116.715 Y87.772 E0.23385
G1 X118.878 Y89.609 E0.32823
G1 X120.905 Y91.243 E0.41483
G1 X122.884 Y92.747 E0.4975
G1 X124.975 Y94.245 E0.58305
G1 X127.073 Y95.66 E0.66722
G1 X129.229 Y97.026 E0.75211
G1 X131.395 Y98.316 E0.83596
G1 X133.647 Y99.57 E0.92169
G1 X135.895 Y100.742 E1.00601
G1 X136.952 Y101.275 E1.04539
G1 X137.739 Y101.716 E1.07539
G1 X138.485 Y102.226 E1.10545
G1 X139.183 Y102.8 E1.13551
G1 X139.827 Y103.433 E1.16554
G1 X140.412 Y104.12 E1.19555
G1 X140.942 Y104.869 E1.22607
G1 X141.839 Y106.274 E1.28151
G1 X143.246 Y108.414 E1.36669
G1 X144.433 Y110.121 E1.43585
G1 X145.058 Y110.999 E1.47169
G1 X145.548 Y111.757 E1.50171
G1 X145.97 Y112.556 E1.53177
G1 X146.319 Y113.388 E1.56177
G1 X146.594 Y114.249 E1.59184
G1 X146.791 Y115.13 E1.62186
G1 X146.926 Y116.247 E1.65928
G1 X146.961 Y116.781 E1.67708
G1 X146.981 Y117.259 E1.69299
G1 X146.99 Y117.811 E1.71136
G1 X146.991 Y118.51 E1.73461
G1 X146.952 Y119.413 E1.76467
G1 X146.834 Y120.308 E1.79469
G1 X146.516 Y121.602 E1.83901
G1 X146.338 Y122.163 E1.85859
G1 X145.554 Y124.74 E1.94818
G1 X144.884 Y127.193 E2.03275
G1 X144.292 Y129.63 E2.11617
G1 X143.751 Y132.162 E2.20228
G1 X143.303 Y134.612 E2.28512
G1 X142.918 Y137.093 E2.36863
G1 X142.619 Y139.592 E2.45234
G1 X142.491 Y140.599 E2.4861
G1 X142.337 Y141.489 E2.51614
G1 X142.106 Y142.362 E2.54618
G1 X141.798 Y143.211 E2.57621
G1 X141.416 Y144.03 E2.60627
G1 X140.963 Y144.811 E2.6363
G1 X140.222 Y145.826 E2.6781
G1 X140.105 Y145.967 E2.68419
G1 X139.498 Y146.636 E2.71424
G1 X138.834 Y147.249 E2.74429
G1 X138.119 Y147.8 E2.77432
G1 X137.357 Y148.286 E2.80438
G1 X136.556 Y148.703 E2.83441
G1 X135.721 Y149.047 E2.86445
G1 X134.859 Y149.316 E2.89448
G1 X133.977 Y149.508 E2.92451
G1 X133.081 Y149.621 E2.95454
G1 X132.438 Y149.652 E2.97595
G1 X131.698 Y149.664 E3.00057
G1 X103.972 Y149.663 E3.92274
G1 X103.271 Y149.653 E3.94606
G1 X102.369 Y149.6 E3.97611
G1 X101.476 Y149.468 E4.00614
G1 X100.597 Y149.257 E4.0362
G1 X99.741 Y148.969 E4.06624
G1 X98.914 Y148.607 E4.09627
G1 X98.122 Y148.173 E4.1263
G1 X97.372 Y147.67 E4.15634
G1 X96.669 Y147.103 E4.18638
G1 X95.838 Y146.282 E4.22523
G1 X95.392 Y145.787 E4.24739
G1 X93.582 Y143.757 E4.33785
G1 X91.827 Y141.9 E4.42283
G1 X91.249 Y141.317 E4.45014
G1 X90.877 Y140.929 E4.46802
G1 X90.282 Y140.25 E4.49805
G1 X89.749 Y139.521 E4.52808
G1 X89.282 Y138.748 E4.55812
G1 X88.886 Y137.937 E4.58814
G1 X88.563 Y137.093 E4.61819
G1 X88.315 Y136.225 E4.64822
G1 X88.146 Y135.337 E4.67828
G1 X88.047 Y134.252 E4.71452
G1 X88.014 Y133.274 E4.74707
G1 X88.008 Y132.74 E4.76483
G1 X88.008 Y132.058 E4.78751
G1 X88.048 Y131.156 E4.81754
G1 X88.168 Y130.261 E4.84758
G1 X88.366 Y129.38 E4.87761
G1 X88.554 Y128.767 E4.89894
G1 X89.487 Y126.001 E4.99603
G1 X90.23 Y123.58 E5.08026
G1 X90.919 Y121.08 E5.16651
G1 X91.521 Y118.63 E5.25042
G1 X92.051 Y116.165 E5.33428
G1 X92.509 Y113.698 E5.41773
G1 X93.093 Y109.799 E5.54886
G1 X93.181 Y109.119 E5.57167
G1 X93.336 Y108.23 E5.60168
G1 X93.569 Y107.357 E5.63173
G1 X93.869 Y106.529 E5.66102
G1 X94.085 Y106.006 E5.67984
G1 X95.135 Y103.494 E5.7704
G1 X96.058 Y101.1 E5.85574
G1 X96.892 Y98.731 E5.93927
G1 X97.676 Y96.292 E6.02448
G1 X98.412 Y93.76 E6.11218
G1 X98.664 Y92.844 E6.14378
G1 X98.941 Y91.984 E6.17383
G1 X99.294 Y91.153 E6.20386
G1 X99.719 Y90.356 E6.2339
G1 X100.212 Y89.599 E6.26395
G1 X100.771 Y88.89 E6.29398
G1 X101.39 Y88.232 E6.32402
G1 X102.065 Y87.632 E6.35406
G1 X102.79 Y87.094 E6.38409
G1 X103.56 Y86.622 E6.41413
G1 X104.369 Y86.22 E6.44417
G1 X105.21 Y85.892 E6.4742
G1 X106.077 Y85.639 E6.50424
G1 X106.963 Y85.463 E6.53428
G1 X108.179 Y85.352 E6.57489
G1 X108.801 Y85.337 E6.59559
G1 X109.575 Y85.337 E6.62133
G1 X110.261 Y85.347 E6.64415
G0 F6000 X110.267 Y84.947
G1 F1200 X111.186 Y85.001 E6.67477
G1 X112.097 Y85.133 E6.70539
G1 X112.993 Y85.345 E6.73601
G1 X113.867 Y85.633 E6.76662
G1 X114.713 Y85.997 E6.79725
G1 X115.524 Y86.432 E6.82786
G1 X116.295 Y86.936 E6.85849
G1 X116.974 Y87.467 E6.88716
G1 X119.148 Y89.313 E6.98202
G1 X121.131 Y90.912 E7.06675
G1 X123.136 Y92.436 E7.15051
G1 X125.225 Y93.933 E7.23599
G1 X127.289 Y95.324 E7.31877
G1 X129.4 Y96.662 E7.4019
G1 X131.63 Y97.989 E7.48821
G1 X133.804 Y99.201 E7.571
G1 X136.052 Y100.373 E7.65532
G1 X137.132 Y100.917 E7.69554
G1 X137.935 Y101.367 E7.72615
G1 X138.697 Y101.885 E7.7568
G1 X139.41 Y102.466 E7.78739
G1 X140.07 Y103.108 E7.81801
G1 X140.673 Y103.804 E7.84864
G1 X141.279 Y104.653 E7.88333
G1 X142.172 Y106.05 E7.93848
G1 X143.577 Y108.187 E8.02354
G1 X144.8 Y109.946 E8.0948
G1 X145.384 Y110.767 E8.12831
G1 X145.884 Y111.539 E8.1589
G1 X146.316 Y112.352 E8.18952
G1 X146.676 Y113.2 E8.22016
G1 X146.961 Y114.075 E8.25077
G1 X147.169 Y114.972 E8.2814
G1 X147.325 Y116.221 E8.32326
G1 X147.36 Y116.755 E8.34106
G1 X147.381 Y117.252 E8.35761
G1 X147.39 Y117.811 E8.3762
G1 X147.391 Y118.51 E8.39945
G1 X147.352 Y119.43 E8.43008
G1 X147.234 Y120.343 E8.46069
G1 X147.037 Y121.242 E8.49131
G1 X146.897 Y121.723 E8.50797
G1 X146.685 Y122.393 E8.53134
G1 X145.949 Y124.815 E8.61553
G1 X145.273 Y127.289 E8.70084
G1 X144.676 Y129.745 E8.7849
G1 X144.149 Y132.213 E8.86884
G1 X143.692 Y134.709 E8.95324
G1 X143.313 Y137.157 E9.03563
G1 X143.015 Y139.643 E9.1189
G1 X142.887 Y140.65 E9.15267
G1 X142.732 Y141.557 E9.18327
G1 X142.498 Y142.447 E9.21388
G1 X142.188 Y143.314 E9.2445
G1 X141.804 Y144.151 E9.27513
G1 X141.348 Y144.951 E9.30576
G1 X140.825 Y145.709 E9.33639
G1 X140.412 Y146.223 E9.35832
G1 X139.794 Y146.905 E9.38893
G1 X139.119 Y147.531 E9.41955
G1 X138.392 Y148.096 E9.45017
G1 X137.619 Y148.596 E9.48079
G1 X136.806 Y149.027 E9.5114
G1 X135.958 Y149.386 E9.54202
G1 X135.082 Y149.67 E9.57265
G1 X134.185 Y149.877 E9.60327
G1 X133.273 Y150.005 E9.6339
G1 X132.445 Y150.052 E9.66149
G1 X131.698 Y150.064 E9.68633
G1 X103.966 Y150.063 E10.6087
G1 X103.265 Y150.053 E10.63202
G1 X102.346 Y150 E10.66264
G1 X101.435 Y149.867 E10.69326
G1 X100.539 Y149.656 E10.72388
G1 X99.664 Y149.368 E10.75452
G1 X98.818 Y149.005 E10.78513
G1 X98.007 Y148.57 E10.81574
G1 X97.236 Y148.066 E10.84638
G1 X96.512 Y147.497 E10.87701
G1 X95.541 Y146.549 E10.92214
G1 X95.061 Y146.017 E10.94597
G1 X93.275 Y144.016 E11.03518
G1 X91.516 Y142.154 E11.12038
G1 X90.961 Y141.594 E11.1466
G1 X90.589 Y141.206 E11.16448
G1 X89.981 Y140.514 E11.19512
G1 X89.435 Y139.773 E11.22573
G1 X88.957 Y138.986 E11.25636
G1 X88.548 Y138.161 E11.28698
G1 X88.212 Y137.304 E11.3176
G1 X87.952 Y136.421 E11.34821
G1 X87.769 Y135.519 E11.37883
G1 X87.647 Y134.267 E11.42066
G1 X87.614 Y133.279 E11.45354
G1 X87.608 Y132.74 E11.47147
G1 X87.608 Y132.058 E11.49416
G1 X87.648 Y131.138 E11.52478
G1 X87.768 Y130.225 E11.55541
G1 X87.966 Y129.326 E11.58603
G1 X88.175 Y128.638 E11.60994
G1 X88.265 Y128.374 E11.61922
G1 X89.113 Y125.861 E11.70743
G1 X89.848 Y123.462 E11.79089
G1 X90.519 Y121.026 E11.87493
G1 X91.138 Y118.51 E11.9611
G1 X91.66 Y116.079 E12.0438
G1 X92.112 Y113.65 E12.12598
G1 X92.698 Y109.739 E12.25751
G1 X92.784 Y109.068 E12.28001
G1 X92.941 Y108.161 E12.31063
G1 X93.176 Y107.271 E12.34124
G1 X93.5 Y106.377 E12.37287
G1 X93.716 Y105.854 E12.39169
G1 X94.765 Y103.344 E12.48217
G1 X95.684 Y100.959 E12.56718
G1 X96.521 Y98.581 E12.65103
G1 X97.285 Y96.206 E12.73401
G1 X98.022 Y93.67 E12.82185
G1 X98.278 Y92.738 E12.85399
G1 X98.56 Y91.861 E12.88463
G1 X98.918 Y91.013 E12.91525
G1 X99.347 Y90.198 E12.94588
G1 X99.846 Y89.425 E12.97648
G1 X100.41 Y88.697 E13.00711
G1 X101.035 Y88.021 E13.03773
G1 X101.716 Y87.401 E13.06836
G1 X102.448 Y86.844 E13.09896
G1 X103.226 Y86.351 E13.12959
G1 X104.044 Y85.929 E13.16021
G1 X104.896 Y85.578 E13.19085
G1 X105.774 Y85.303 E13.22146
G1 X106.673 Y85.105 E13.25207
G1 X107.586 Y84.986 E13.2827
G1 X108.167 Y84.952 E13.30205
G1 X108.801 Y84.937 E13.32315
G1 X109.581 Y84.937 E13.34909
G1 X110.267 Y84.947 E13.37191
G0 F6000 X110.272 Y84.547
G1 F1200 X111.209 Y84.601 E13.40312
G1 X112.137 Y84.734 E13.43431
G1 X113.051 Y84.946 E13.46551
G1 X113.943 Y85.235 E13.4967
G1 X114.807 Y85.598 E13.52787
G1 X115.638 Y86.035 E13.5591
G1 X116.428 Y86.54 E13.59028
G1 X117.233 Y87.162 E13.62412
G1 X119.417 Y89.017 E13.71942
G1 X121.379 Y90.598 E13.80323
G1 X123.366 Y92.108 E13.88623
G1 X125.437 Y93.592 E13.97097
G1 X127.521 Y94.998 E14.05459
G1 X129.639 Y96.34 E14.13798
G1 X131.782 Y97.615 E14.22092
G1 X134.005 Y98.855 E14.30558
G1 X136.268 Y100.034 E14.39045
G1 X137.312 Y100.56 E14.42934
G1 X138.131 Y101.018 E14.46055
G1 X138.907 Y101.543 E14.49171
G1 X139.637 Y102.133 E14.52293
G1 X140.313 Y102.783 E14.55412
G1 X140.932 Y103.488 E14.58532
G1 X141.615 Y104.436 E14.62418
G1 X142.513 Y105.842 E14.67967
G1 X143.906 Y107.962 E14.76404
G1 X145.134 Y109.727 E14.83556
G1 X145.709 Y110.535 E14.86854
G1 X146.22 Y111.321 E14.89972
G1 X146.662 Y112.149 E14.93094
G1 X147.032 Y113.01 E14.96211
G1 X147.327 Y113.901 E14.99333
G1 X147.545 Y114.813 E15.02451
G1 X147.724 Y116.195 E15.07086
G1 X147.759 Y116.729 E15.08866
G1 X147.781 Y117.244 E15.10581
G1 X147.79 Y117.81 E15.12464
G1 X147.791 Y118.509 E15.14788
G1 X147.752 Y119.446 E15.17908
G1 X147.634 Y120.377 E15.21029
G1 X147.437 Y121.294 E15.24148
G1 X147.279 Y121.843 E15.26049
G1 X147.067 Y122.513 E15.28386
G1 X146.329 Y124.941 E15.36826
G1 X145.664 Y127.378 E15.45228
G1 X145.064 Y129.843 E15.53666
G1 X144.539 Y132.304 E15.62036
G1 X144.087 Y134.771 E15.70377
G1 X143.709 Y137.209 E15.78583
G1 X143.412 Y139.693 E15.86904
G1 X143.284 Y140.7 E15.9028
G1 X143.126 Y141.625 E15.93401
G1 X142.89 Y142.532 E15.96518
G1 X142.578 Y143.417 E15.99639
G1 X142.191 Y144.271 E16.02758
G1 X141.733 Y145.089 E16.05876
G1 X141.207 Y145.866 E16.08997
G1 X140.72 Y146.478 E16.11598
G1 X140.091 Y147.174 E16.14718
G1 X139.405 Y147.813 E16.17836
G1 X138.667 Y148.392 E16.20956
G1 X137.882 Y148.906 E16.24077
G1 X137.057 Y149.351 E16.27195
G1 X136.196 Y149.724 E16.30316
G1 X135.307 Y150.022 E16.33434
G1 X134.396 Y150.244 E16.36553
G1 X133.469 Y150.387 E16.39673
G1 X132.452 Y150.452 E16.43062
G1 X131.698 Y150.464 E16.4557
G1 X103.96 Y150.463 E17.37827
G1 X103.259 Y150.453 E17.40159
G1 X102.323 Y150.4 E17.43277
G1 X101.394 Y150.267 E17.46398
G1 X100.481 Y150.055 E17.49516
G1 X99.588 Y149.767 E17.52637
G1 X98.724 Y149.403 E17.55755
G1 X97.893 Y148.967 E17.58876
G1 X97.103 Y148.462 E17.61995
G1 X96.359 Y147.892 E17.65112
G1 X95.666 Y147.26 E17.68231
G1 X95.244 Y146.817 E17.70266
G1 X94.763 Y146.283 E17.72657
G1 X92.987 Y144.293 E17.81528
G1 X91.243 Y142.448 E17.89972
G1 X90.672 Y141.871 E17.92672
G1 X90.3 Y141.483 E17.9446
G1 X89.68 Y140.779 E17.9758
G1 X89.123 Y140.024 E18.00701
G1 X88.632 Y139.225 E18.0382
G1 X88.21 Y138.387 E18.0694
G1 X87.862 Y137.517 E18.10057
G1 X87.589 Y136.619 E18.13179
G1 X87.394 Y135.702 E18.16297
G1 X87.277 Y134.772 E18.19414
G1 X87.248 Y134.282 E18.21047
G1 X87.214 Y133.284 E18.24368
G1 X87.208 Y132.74 E18.26178
G1 X87.208 Y132.058 E18.28446
G1 X87.248 Y131.121 E18.31565
G1 X87.368 Y130.191 E18.34684
G1 X87.566 Y129.274 E18.37805
G1 X87.796 Y128.509 E18.40461
G1 X87.886 Y128.245 E18.41389
G1 X88.727 Y125.753 E18.50137
G1 X89.466 Y123.344 E18.58518
G1 X90.14 Y120.897 E18.6696
G1 X90.743 Y118.441 E18.75371
G1 X91.261 Y116.035 E18.83557
G1 X91.719 Y113.569 E18.91899
G1 X92.305 Y109.657 E19.05055
G1 X92.387 Y109.017 E19.07201
G1 X92.547 Y108.093 E19.1032
G1 X92.784 Y107.186 E19.13438
G1 X93.13 Y106.224 E19.16839
G1 X93.346 Y105.701 E19.18721
G1 X94.399 Y103.183 E19.27798
G1 X95.305 Y100.831 E19.36182
G1 X96.139 Y98.463 E19.44532
G1 X96.906 Y96.077 E19.52868
G1 X97.621 Y93.617 E19.61388
G1 X97.892 Y92.631 E19.64789
G1 X98.179 Y91.739 E19.67906
G1 X98.541 Y90.873 E19.71028
G1 X98.976 Y90.042 E19.74147
G1 X99.479 Y89.251 E19.77265
G1 X100.048 Y88.505 E19.80386
G1 X100.679 Y87.811 E19.83505
G1 X101.366 Y87.173 E19.86624
G1 X102.105 Y86.596 E19.89742
G1 X102.891 Y86.084 E19.92862
G1 X103.718 Y85.641 E19.95982
G1 X104.579 Y85.269 E19.99102
G1 X105.469 Y84.973 E20.02222
G1 X106.38 Y84.753 E20.05339
G1 X107.308 Y84.612 E20.08461
G1 X108.154 Y84.552 E20.11282
G1 X108.473 Y84.542 E20.12343
G1 X108.8 Y84.537 E20.13431
G1 X109.586 Y84.537 E20.16045
G1 X110.272 Y84.547 E20.18327
G1 F2700 E15.18327
G0 F6000 X102.632 Y110.223
G0 X97.535 Y131.902
G0 X97.563 Y134.031
G0 X98.067 Y134.528
G0 X104.755 Y134.527
G0 X105.259 Y134.023
G0 X107.671 Y121.734
G0 X109.198 Y124.102
G1 F2700 E20.18327
G1 F1200 X109.241 Y124.177 E20.18614
G1 X110.519 Y126.029 E20.26098
G1 X110.864 Y126.459 E20.27932
G1 X111.268 Y126.834 E20.29765
G1 X111.721 Y127.147 E20.31597
G1 X112.215 Y127.391 E20.33429
G1 X112.918 Y127.6 E20.35869
G1 X116.196 Y128.241 E20.46978
G1 X116.743 Y128.308 E20.48811
G1 X117.294 Y128.294 E20.50644
G1 X117.837 Y128.201 E20.52476
G1 X118.361 Y128.03 E20.5431
G1 X119.028 Y127.677 E20.5682
G1 X119.359 Y127.457 E20.58141
G1 X119.795 Y127.119 E20.59976
G1 X120.177 Y126.722 E20.61809
G1 X120.498 Y126.274 E20.63642
G1 X120.751 Y125.785 E20.65473
G1 X120.974 Y125.078 E20.67939
G1 X121.591 Y122.16 E20.77859
G1 X121.665 Y121.614 E20.79691
G1 X121.66 Y121.063 E20.81524
G1 X121.534 Y120.354 E20.83919
G1 X121.427 Y119.97 E20.85245
G1 X121.241 Y119.451 E20.87079
G1 X120.982 Y118.965 E20.8891
G1 X120.54 Y118.393 E20.91315
G1 X119.177 Y116.937 E20.97948
G1 X118.624 Y116.451 E21.00397
G1 X118.394 Y116.285 E21.0134
G1 X126.472 Y116.285 E21.28208
G1 X126.472 Y117.256 E21.31437
G1 X126.48 Y118.77 E21.36473
G1 X126.523 Y119.319 E21.38304
G1 X126.645 Y119.857 E21.40139
G1 X126.843 Y120.371 E21.41971
G1 X127.114 Y120.851 E21.43805
G1 X127.605 Y121.448 E21.46376
G1 X128.191 Y122.029 E21.4912
G1 X128.577 Y122.361 E21.50814
G1 X128.577 Y135.664 E21.9506
G1 X108.842 Y135.664 E22.60698
G1 X108.968 Y135.383 E22.61723
G1 X109.119 Y134.853 E22.63556
G1 X109.198 Y134.08 E22.6614
G1 X109.198 Y124.102 E22.99327
G0 F6000 X109.571 Y123.95
G1 F1200 X110.849 Y125.802 E23.06811
G1 X111.177 Y126.207 E23.08544
G1 X111.563 Y126.557 E23.10277
G1 X111.998 Y126.844 E23.12011
G1 X112.471 Y127.061 E23.13742
G1 X112.995 Y127.208 E23.15552
G1 X116.273 Y127.849 E23.26661
G1 X116.79 Y127.909 E23.28392
G1 X117.311 Y127.89 E23.30126
G1 X117.823 Y127.791 E23.3186
G1 X118.313 Y127.616 E23.33591
G1 X118.807 Y127.344 E23.35467
G1 X119.138 Y127.124 E23.36789
G1 X119.549 Y126.803 E23.38523
G1 X119.905 Y126.423 E23.40255
G1 X120.2 Y125.993 E23.41989
G1 X120.425 Y125.523 E23.43722
G1 X120.582 Y124.995 E23.45555
G1 X121.199 Y122.077 E23.55474
G1 X121.268 Y121.561 E23.57206
G1 X121.257 Y121.04 E23.58939
G1 X121.148 Y120.461 E23.60899
G1 X121.041 Y120.077 E23.62225
