;FLAVOR:Marlin
;TIME:60052
;Filament used: 28.4188m
;Layer height: 0.1
;MINX:67.625
;MINY:65.715
;MINZ:0.144
;MAXX:167.375
;MAXY:169.285
;MAXZ:56.264
;Generated with Cura_SteamEngine 4.6.2
M140 S60
M105
M190 S60
M104 S180
M105
M109 S180
M82 ;absolute extrusion mode
; Ender 3 Custom Start G-code
G92 E0 ; Reset Extruder
G28 ; Home all axes
G1 Z2.0 F3000 ; Move Z Axis up little to prevent scratching of Heat Bed
G1 X0.1 Y20 Z0.3 F5000.0 ; Move to start position
G1 X0.1 Y200.0 Z0.3 F1500.0 E15 ; Draw the first line
G1 X0.4 Y200.0 Z0.3 F5000.0 ; Move to side a little
G1 X0.4 Y20 Z0.3 F1500.0 E30 ; Draw the second line
G92 E0 ; Reset Extruder
G1 Z2.0 F3000 ; Move Z Axis up little to prevent scratching of Heat Bed
G1 X5 Y20 Z0.3 F5000.0 ; Move over to prevent blob squish
G92 E0
G92 E0
G1 F2700 E-6
;LAYER_COUNT:556
;LAYER:-7
M107
M204 S1400
M205 X5 Y5
G0 F6000 X72.38 Y89.997 Z0.144
M204 S250
;TYPE:SUPPORT-INTERFACE
G1 F2700 E0
G1 F1890 X72.88 Y89.632 E0.02965
G1 X73.069 Y89.506 E0.04053
G1 X73.637 Y89.164 E0.07228
G1 X73.788 Y89.082 E0.08051
G1 X74.377 Y88.797 E0.11185
G1 X74.598 Y88.7 E0.12341
G1 X75.185 Y88.477 E0.15349
G1 X75.394 Y88.408 E0.16403
G1 X75.984 Y88.242 E0.19338
G1 X76.235 Y88.184 E0.20572
G1 X76.853 Y88.068 E0.23584
G1 X77.055 Y88.04 E0.2456
G1 X77.749 Y87.974 E0.27899
G1 X77.881 Y87.967 E0.28532
G1 X78.284 Y87.956 E0.30463
G1 X95.736 Y87.956 E1.14049
G1 X96.404 Y87.914 E1.17255
G1 X97.075 Y87.785 E1.20527
G1 X97.724 Y87.572 E1.23799
G1 X98.341 Y87.28 E1.27068
G1 X98.916 Y86.912 E1.30338
G1 X99.44 Y86.474 E1.33609
G1 X99.904 Y85.974 E1.36876
G1 X100.303 Y85.418 E1.40153
G1 X100.627 Y84.818 E1.43419
G1 X100.873 Y84.182 E1.46685
G1 X101.039 Y83.513 E1.49986
G1 X101.123 Y82.574 E1.54502
G1 X101.126 Y76.33 E1.84407
G1 X101.158 Y75.613 E1.87845
G1 X101.173 Y75.434 E1.88705
G1 X101.263 Y74.777 E1.91881
G1 X101.301 Y74.565 E1.92912
G1 X101.442 Y73.945 E1.95958
G1 X101.497 Y73.743 E1.9696
G1 X101.703 Y73.107 E2.00162
G1 X101.768 Y72.93 E2.01065
G1 X102.023 Y72.331 E2.04183
G1 X102.113 Y72.145 E2.05173
G1 X102.424 Y71.563 E2.08334
G1 X102.533 Y71.38 E2.09354
G1 X102.875 Y70.86 E2.12335
G1 X103.024 Y70.653 E2.13556
G1 X103.408 Y70.169 E2.16515
G1 X103.541 Y70.015 E2.1749
G1 X103.995 Y69.537 E2.20647
G1 X104.147 Y69.391 E2.21657
G1 X104.624 Y68.972 E2.24697
G1 X104.813 Y68.82 E2.25859
G1 X105.313 Y68.455 E2.28824
G1 X105.502 Y68.329 E2.29912
G1 X106.07 Y67.987 E2.33087
G1 X106.221 Y67.905 E2.3391
G1 X106.81 Y67.62 E2.37044
G1 X107.031 Y67.523 E2.382
G1 X107.618 Y67.3 E2.41208
G1 X107.827 Y67.231 E2.42262
G1 X108.417 Y67.065 E2.45197
G1 X108.668 Y67.007 E2.46431
G1 X109.286 Y66.891 E2.49443
G1 X109.488 Y66.863 E2.50419
G1 X110.182 Y66.797 E2.53758
G1 X110.314 Y66.79 E2.54391
G1 X110.717 Y66.779 E2.56322
G1 X156.759 Y66.782 E4.76839
G1 X157.476 Y66.814 E4.80276
G1 X157.662 Y66.83 E4.8117
G1 X158.312 Y66.919 E4.84312
G1 X158.524 Y66.957 E4.85344
G1 X159.147 Y67.099 E4.88404
G1 X159.353 Y67.155 E4.89427
G1 X159.982 Y67.359 E4.92594
G1 X160.165 Y67.427 E4.93529
G1 X160.776 Y67.687 E4.96709
G1 X160.937 Y67.765 E4.97566
G1 X161.533 Y68.084 E5.00804
G1 X161.709 Y68.189 E5.01785
G1 X162.229 Y68.531 E5.04766
G1 X162.436 Y68.68 E5.05988
G1 X162.932 Y69.074 E5.09021
G1 X163.073 Y69.196 E5.09914
G1 X163.552 Y69.651 E5.13079
G1 X163.698 Y69.803 E5.14088
G1 X164.117 Y70.28 E5.17129
G1 X164.269 Y70.469 E5.1829
G1 X164.634 Y70.969 E5.21255
G1 X164.764 Y71.164 E5.22378
G1 X165.102 Y71.726 E5.25519
G1 X165.184 Y71.877 E5.26342
G1 X165.467 Y72.46 E5.29446
G1 X165.566 Y72.687 E5.30632
G1 X165.786 Y73.265 E5.33594
G1 X165.859 Y73.487 E5.34713
G1 X166.024 Y74.073 E5.37629
G1 X166.082 Y74.324 E5.38863
G1 X166.199 Y74.949 E5.41908
G1 X166.225 Y75.136 E5.42812
G1 X166.291 Y75.827 E5.46137
G1 X166.299 Y75.97 E5.46823
G1 X166.31 Y76.379 E5.48782
G1 X166.307 Y122.416 E7.69275
G1 X166.275 Y123.133 E7.72712
G1 X166.26 Y123.312 E7.73573
G1 X166.17 Y123.969 E7.76749
G1 X166.132 Y124.179 E7.77771
G1 X165.991 Y124.801 E7.80825
G1 X165.936 Y125.003 E7.81828
G1 X165.73 Y125.639 E7.8503
G1 X165.665 Y125.816 E7.85933
G1 X165.41 Y126.415 E7.89051
G1 X165.32 Y126.601 E7.90041
G1 X165.009 Y127.183 E7.93201
G1 X164.9 Y127.366 E7.94221
G1 X164.558 Y127.886 E7.97202
G1 X164.409 Y128.093 E7.98424
G1 X164.025 Y128.577 E8.01383
G1 X163.892 Y128.731 E8.02357
G1 X163.438 Y129.209 E8.05515
G1 X163.286 Y129.355 E8.06524
G1 X162.809 Y129.774 E8.09565
G1 X162.621 Y129.925 E8.1072
G1 X162.12 Y130.291 E8.13692
G1 X161.931 Y130.417 E8.1478
G1 X161.363 Y130.759 E8.17955
G1 X161.212 Y130.841 E8.18778
G1 X160.623 Y131.126 E8.21912
G1 X160.405 Y131.222 E8.23053
G1 X159.815 Y131.446 E8.26075
G1 X159.606 Y131.515 E8.27129
G1 X159.016 Y131.681 E8.30065
G1 X158.765 Y131.739 E8.31299
G1 X158.147 Y131.855 E8.3431
G1 X157.945 Y131.883 E8.35287
G1 X157.251 Y131.949 E8.38626
G1 X157.119 Y131.956 E8.39259
G1 X156.716 Y131.967 E8.4119
G1 X155.851 Y131.967 E8.45333
G1 X155.183 Y132.009 E8.48538
G1 X154.512 Y132.138 E8.51811
G1 X153.863 Y132.351 E8.55083
G1 X153.246 Y132.643 E8.58352
G1 X152.671 Y133.011 E8.61622
G1 X152.147 Y133.449 E8.64892
G1 X151.683 Y133.949 E8.68159
G1 X151.284 Y134.505 E8.71437
G1 X150.96 Y135.105 E8.74703
G1 X150.714 Y135.741 E8.77969
G1 X150.548 Y136.41 E8.8127
G1 X150.464 Y137.349 E8.85786
G1 X150.461 Y158.67 E9.87902
G1 X150.429 Y159.387 E9.91339
G1 X150.414 Y159.566 E9.92199
G1 X150.324 Y160.223 E9.95376
G1 X150.286 Y160.433 E9.96398
G1 X150.145 Y161.055 E9.99452
G1 X150.09 Y161.257 E10.00455
G1 X149.884 Y161.893 E10.03657
G1 X149.819 Y162.07 E10.0456
G1 X149.564 Y162.669 E10.07678
G1 X149.474 Y162.855 E10.08668
G1 X149.163 Y163.437 E10.11828
G1 X149.054 Y163.62 E10.12848
G1 X148.719 Y164.132 E10.15779
G1 X148.575 Y164.332 E10.16959
G1 X148.179 Y164.831 E10.2001
G1 X148.046 Y164.985 E10.20985
G1 X147.594 Y165.461 E10.24129
G1 X147.44 Y165.609 E10.25152
G1 X146.963 Y166.028 E10.28192
G1 X146.775 Y166.179 E10.29347
G1 X146.274 Y166.545 E10.32319
G1 X146.085 Y166.671 E10.33407
G1 X145.517 Y167.013 E10.36582
G1 X145.366 Y167.095 E10.37405
G1 X144.777 Y167.38 E10.40539
G1 X144.559 Y167.476 E10.4168
G1 X143.969 Y167.7 E10.44703
G1 X143.76 Y167.769 E10.45757
G1 X143.17 Y167.935 E10.48692
G1 X142.919 Y167.993 E10.49926
G1 X142.301 Y168.109 E10.52938
G1 X142.099 Y168.137 E10.53914
G1 X141.405 Y168.203 E10.57253
G1 X141.273 Y168.21 E10.57886
G1 X140.87 Y168.221 E10.59817
G1 X98.414 Y168.218 E12.63158
G1 X97.697 Y168.186 E12.66596
G1 X97.511 Y168.17 E12.6749
G1 X96.861 Y168.081 E12.70632
G1 X96.649 Y168.043 E12.71664
G1 X96.026 Y167.901 E12.74724
G1 X95.82 Y167.845 E12.75747
G1 X95.191 Y167.641 E12.78914
G1 X95.008 Y167.573 E12.79849
G1 X94.409 Y167.318 E12.82967
G1 X94.225 Y167.229 E12.83946
G1 X93.64 Y166.916 E12.87123
G1 X93.464 Y166.811 E12.88105
G1 X92.944 Y166.469 E12.91086
G1 X92.737 Y166.32 E12.92307
G1 X92.241 Y165.926 E12.95341
G1 X92.099 Y165.803 E12.96241
G1 X91.621 Y165.349 E12.99398
G1 X91.47 Y165.191 E13.00445
G1 X91.045 Y164.707 E13.0353
G1 X90.908 Y164.536 E13.04579
G1 X90.537 Y164.028 E13.07592
G1 X90.409 Y163.836 E13.08697
G1 X90.071 Y163.274 E13.11838
G1 X89.989 Y163.123 E13.12661
G1 X89.699 Y162.525 E13.15845
G1 X89.607 Y162.313 E13.16951
G1 X89.381 Y161.718 E13.2
G1 X89.314 Y161.513 E13.21033
G1 X89.149 Y160.926 E13.23953
G1 X89.091 Y160.676 E13.25182
G1 X88.974 Y160.051 E13.28228
G1 X88.946 Y159.847 E13.29214
G1 X88.874 Y159.031 E13.33137
G1 X88.863 Y158.621 E13.35102
G1 X88.863 Y152.689 E13.63513
G1 X88.821 Y152.021 E13.66718
G1 X88.692 Y151.35 E13.69991
G1 X88.479 Y150.701 E13.73262
G1 X88.187 Y150.084 E13.76532
G1 X87.819 Y149.509 E13.79801
G1 X87.381 Y148.985 E13.83072
G1 X86.881 Y148.521 E13.86339
G1 X86.325 Y148.122 E13.89617
G1 X85.725 Y147.798 E13.92883
G1 X85.089 Y147.552 E13.96149
G1 X84.42 Y147.386 E13.9945
G1 X83.481 Y147.302 E14.03966
G1 X78.241 Y147.299 E14.29062
G1 X77.524 Y147.267 E14.325
G1 X77.338 Y147.251 E14.33394
G1 X76.688 Y147.162 E14.36536
G1 X76.476 Y147.124 E14.37568
G1 X75.853 Y146.982 E14.40628
G1 X75.647 Y146.926 E14.4165
G1 X75.018 Y146.722 E14.44818
G1 X74.835 Y146.654 E14.45753
G1 X74.236 Y146.399 E14.48871
G1 X74.052 Y146.31 E14.4985
G1 X73.467 Y145.997 E14.53027
G1 X73.291 Y145.892 E14.54009
G1 X72.771 Y145.55 E14.5699
G1 X72.564 Y145.401 E14.58211
G1 X72.068 Y145.007 E14.61245
G1 X71.926 Y144.884 E14.62145
G1 X71.448 Y144.43 E14.65302
G1 X71.297 Y144.272 E14.66349
G1 X70.872 Y143.788 E14.69434
G1 X70.735 Y143.617 E14.70483
G1 X70.364 Y143.109 E14.73496
G1 X70.236 Y142.917 E14.74601
G1 X69.898 Y142.355 E14.77742
G1 X69.816 Y142.204 E14.78565
G1 X69.526 Y141.606 E14.81748
G1 X69.434 Y141.394 E14.82855
G1 X69.208 Y140.799 E14.85904
G1 X69.141 Y140.594 E14.86937
G1 X68.976 Y140.007 E14.89857
G1 X68.918 Y139.757 E14.91086
G1 X68.801 Y139.132 E14.94132
G1 X68.773 Y138.928 E14.95118
G1 X68.701 Y138.112 E14.99041
G1 X68.69 Y137.702 E15.01006
G1 X68.693 Y97.507 E16.93518
G1 X68.725 Y96.79 E16.96955
G1 X68.74 Y96.611 E16.97816
G1 X68.83 Y95.954 E17.00992
G1 X68.868 Y95.742 E17.02023
G1 X69.009 Y95.122 E17.05069
G1 X69.064 Y94.92 E17.06071
G1 X69.27 Y94.284 E17.09273
G1 X69.335 Y94.107 E17.10176
G1 X69.59 Y93.508 E17.13294
G1 X69.68 Y93.322 E17.14284
G1 X69.991 Y92.74 E17.17444
G1 X70.1 Y92.557 E17.18465
G1 X70.442 Y92.037 E17.21445
G1 X70.591 Y91.83 E17.22667
G1 X70.975 Y91.346 E17.25626
G1 X71.108 Y91.192 E17.26601
G1 X71.562 Y90.714 E17.29758
G1 X71.714 Y90.568 E17.30767
G1 X72.191 Y90.149 E17.33808
G1 X72.38 Y89.997 E17.3497
M204 S1400
G0 F6000 X72 Y90.316
M204 S250
G1 F1890 X72 Y144.948 E19.96628
M204 S1400
G0 F6000 X73.6 Y146.068
M204 S250
G1 F1890 X73.6 Y89.186 E22.69062
M204 S1400
G0 F6000 X75.2 Y88.472
M204 S250
G1 F1890 X75.2 Y146.781 E25.4833
M204 S1400
G0 F6000 X76.8 Y147.177
M204 S250
G1 F1890 X76.8 Y88.077 E28.31387
M204 S1400
G0 F6000 X78.4 Y87.956
M204 S250
G1 F1890 X78.4 Y147.299 E31.15608
M204 S1400
G0 F6000 X80 Y147.3
M204 S250
G1 F1890 X80 Y87.956 E33.99834
M204 S1400
G0 F6000 X81.6 Y87.956
M204 S250
G1 F1890 X81.6 Y147.3 E36.8406
M204 S1400
G0 F6000 X83.2 Y147.301
M204 S250
G1 F1890 X83.2 Y87.956 E39.6829
M204 S1400
G0 F6000 X84.8 Y87.956
M204 S250
G1 F1890 X84.8 Y147.48 E42.53378
M204 S1400
G0 F6000 X86.4 Y148.175
M204 S250
G1 F1890 X86.4 Y87.956 E45.41794
M204 S1400
G0 F6000 X88 Y87.956
M204 S250
G1 F1890 X88 Y149.791 E48.3795
M204 S1400
G1 F2700 E42.3795
G0 F6000 X87.254 Y150.602
G0 X87.925 Y160.232
G0 X88.03 Y160.685
G0 X88.381 Y162.082
G0 X89.6 Y162.294
M204 S250
G1 F2700 E48.3795
G1 F1890 X89.6 Y87.956 E51.93989
M204 S1400
G0 F6000 X91.2 Y87.956
M204 S250
G1 F1890 X91.2 Y164.883 E55.62428
M204 S1400
G0 F6000 X92.8 Y166.365
M204 S250
G1 F1890 X92.8 Y87.956 E59.37965
M204 S1400
G0 F6000 X94.4 Y87.956
M204 S250
G1 F1890 X94.4 Y167.313 E63.18042
M204 S1400
G0 F6000 X96 Y167.893
M204 S250
G1 F1890 X96 Y87.939 E67.00978
M204 S1400
G0 F6000 X97.6 Y87.612
M204 S250
G1 F1890 X97.6 Y168.177 E70.86841
M204 S1400
G0 F6000 X99.2 Y168.218
M204 S250
G1 F1890 X99.2 Y86.674 E74.77393
M204 S1400
G0 F6000 X100.8 Y84.37
M204 S250
G1 F1890 X100.8 Y168.218 E78.78979
M204 S1400
G0 F6000 X102.4 Y168.218
M204 S250
G1 F1890 X102.4 Y71.607 E83.41694
M204 S1400
G0 F6000 X104 Y69.532
M204 S250
G1 F1890 X104 Y168.218 E88.14346
M204 S1400
G0 F6000 X105.6 Y168.218
M204 S250
G1 F1890 X105.6 Y68.269 E92.93048
M204 S1400
G0 F6000 X107.2 Y67.458
M204 S250
G1 F1890 X107.2 Y168.218 E97.75634
M204 S1400
G0 F6000 X108.8 Y168.218
M204 S250
G1 F1890 X108.8 Y66.982 E102.605
M204 S1400
G0 F6000 X110.4 Y66.787
M204 S250
G1 F1890 X110.4 Y168.218 E107.46299
M204 S1400
G0 F6000 X112 Y168.218
M204 S250
G1 F1890 X112 Y66.78 E112.32133
M204 S1400
G0 F6000 X113.6 Y66.78
M204 S250
G1 F1890 X113.6 Y168.219 E117.17971
M204 S1400
G0 F6000 X115.2 Y168.219
M204 S250
G1 F1890 X115.2 Y66.78 E122.03809
M204 S1400
G0 F6000 X116.8 Y66.78
M204 S250
G1 F1890 X116.8 Y168.219 E126.89647
M204 S1400
G0 F6000 X118.4 Y168.219
M204 S250
G1 F1890 X118.4 Y66.78 E131.75485
M204 S1400
G0 F6000 X120 Y66.78
M204 S250
G1 F1890 X120 Y168.219 E136.61323
M204 S1400
G0 F6000 X121.6 Y168.219
M204 S250
G1 F1890 X121.6 Y66.78 E141.47161
M204 S1400
G0 F6000 X123.2 Y66.78
M204 S250
G1 F1890 X123.2 Y168.219 E146.32999
M204 S1400
G0 F6000 X124.8 Y168.219
M204 S250
G1 F1890 X124.8 Y66.78 E151.18836
M204 S1400
G0 F6000 X126.4 Y66.781
M204 S250
G1 F1890 X126.4 Y168.219 E156.0467
M204 S1400
G0 F6000 X128 Y168.22
M204 S250
G1 F1890 X128 Y66.781 E160.90508
M204 S1400
G0 F6000 X129.6 Y66.781
M204 S250
G1 F1890 X129.6 Y168.22 E165.76346
M204 S1400
G0 F6000 X131.2 Y168.22
M204 S250
G1 F1890 X131.2 Y66.781 E170.62184
M204 S1400
G0 F6000 X132.8 Y66.781
M204 S250
G1 F1890 X132.8 Y168.22 E175.48022
M204 S1400
G0 F6000 X134.4 Y168.22
M204 S250
G1 F1890 X134.4 Y66.781 E180.3386
M204 S1400
G0 F6000 X136 Y66.781
M204 S250
G1 F1890 X136 Y168.22 E185.19698
M204 S1400
G0 F6000 X137.6 Y168.22
M204 S250
G1 F1890 X137.6 Y66.781 E190.05536
M204 S1400
G0 F6000 X139.2 Y66.781
M204 S250
G1 F1890 X139.2 Y168.22 E194.91373
M204 S1400
G0 F6000 X140.8 Y168.22
M204 S250
G1 F1890 X140.8 Y66.781 E199.77211
M204 S1400
G0 F6000 X142.4 Y66.782
M204 S250
G1 F1890 X142.4 Y168.091 E204.62427
M204 S1400
G0 F6000 X144 Y167.689
M204 S250
G1 F1890 X144 Y66.782 E209.45717
M204 S1400
G0 F6000 X145.6 Y66.782
M204 S250
G1 F1890 X145.6 Y166.964 E214.25534
M204 S1400
G0 F6000 X147.2 Y165.82
M204 S250
G1 F1890 X147.2 Y66.782 E218.99873
M204 S1400
G0 F6000 X148.8 Y66.782
M204 S250
G1 F1890 X148.8 Y164.009 E223.65538
M204 S1400
G1 F2700 E217.65538
G0 F6000 X149.961 Y164.178
G0 X150.529 Y163.119
G0 X150.997 Y161.865
G0 X151.374 Y160.397
G0 X150.4 Y159.669
M204 S250
G1 F2700 E223.65538
G1 F1890 X150.4 Y66.782 E228.10416
M204 S1400
G0 F6000 X152 Y66.782
M204 S250
G1 F1890 X152 Y133.608 E231.30477
M204 S1400
G0 F6000 X153.6 Y132.476
M204 S250
G1 F1890 X153.6 Y66.782 E234.45115
M204 S1400
G0 F6000 X155.2 Y66.782
M204 S250
G1 F1890 X155.2 Y132.008 E237.57513
M204 S1400
G0 F6000 X156.8 Y131.965
M204 S250
G1 F1890 X156.8 Y66.784 E240.69694
M204 S1400
G0 F6000 X158.4 Y66.935
M204 S250
G1 F1890 X158.4 Y131.808 E243.80401
M204 S1400
G0 F6000 X160 Y131.376
M204 S250
G1 F1890 X160 Y67.366 E246.86974
M204 S1400
G0 F6000 X161.6 Y68.124
M204 S250
G1 F1890 X161.6 Y130.617 E249.86282
M204 S1400
G0 F6000 X163.2 Y129.431
M204 S250
G1 F1890 X163.2 Y69.317 E252.74196
M204 S1400
G0 F6000 X164.8 Y71.224
M204 S250
G1 F1890 X164.8 Y127.519 E255.43818
M204 S1400
G1 F2700 E249.43818
G0 F6000 X165.43 Y128.496
G0 X150.419 Y163.346
G0 X149.59 Y164.742
G0 X148.828 Y165.707
G0 X147.641 Y166.849
G0 X146.657 Y167.569
G0 X145.22 Y168.349
G0 X144.074 Y168.786
G0 X142.475 Y169.159
G0 X140.89 Y169.285
G0 X97.636 Y169.249
G0 X96.446 Y169.089
G0 X94.85 Y168.65
G0 X93.738 Y168.176
G0 X92.334 Y167.341
G0 X91.377 Y166.585
G0 X70.062 Y144.479
G0 X69.54 Y143.786
G0 X70.4 Y143.158
M204 S250
G1 F2700 E255.43818
G1 F1890 X70.4 Y92.1 E257.88358
M204 S1400
G0 F6000 X68.8 Y96.173
M204 S250
G1 F1890 X68.8 Y139.124 E259.9407
M204 S1400
G0 F300 X68.8 Y139.124 Z0.294
G0 F6000 X69.567 Y141.692
;TIME_ELAPSED:193.535243
;LAYER:-6
M140 S60
M204 S250
;TYPE:SUPPORT
G1 F1890 X74.299 Y146.424 E260.27457
G1 X74.236 Y146.397 E260.27799
G1 X74.051 Y146.309 E260.28821
G1 X73.466 Y145.996 E260.32131
G1 X73.29 Y145.89 E260.33156
G1 X72.771 Y145.549 E260.36255
G1 X72.564 Y145.4 E260.37527
G1 X72.068 Y145.006 E260.40687
G1 X71.925 Y144.883 E260.41628
G1 X71.447 Y144.429 E260.44917
G1 X71.296 Y144.271 E260.46008
G1 X70.871 Y143.787 E260.49221
G1 X70.734 Y143.616 E260.50314
